( Made using CamBam - http://www.cambam.co.uk )
( ProtoBox1-A 2/7/2014 2:54:53 PM )
( T0 : 6.35 )
G21 G90 G64 G40
G0 Z3.0
( T0 : 6.35 )
T0 M6
( 3DSurface1 )
G17
M3 S1000
G0 X338.5824 Y116.8662
G0 Z1.0
G1 F800.0 Z-3.0
G1 F1000.0 X338.5863 Y467.0869
G1 Y467.0891
G2 Y468.2528 I3595.9834 J0.59
G3 X338.5819 Y468.619 I-14.795 J0.0024
G1 X338.5859 Y634.6242
G1 X340.0551 Y634.5895
G1 X340.0547 Y209.2569
G3 X340.0551 Y209.1528 I14.795 J0.0
G1 Y116.901
G1 X338.5824 Y116.8662
G1 F800.0 X336.0424 Y116.8663
G1 F1000.0 X336.0463 Y467.0869
G1 Y467.0887
G2 Y468.2532 I3598.5234 J0.5905
G3 X336.0419 Y468.5864 I-12.255 J0.002
G1 X336.046 Y637.2248
G1 X342.5951 Y637.0703
G1 X342.5947 Y209.2569
G3 X342.5951 Y209.1622 I12.255 J0.0
G1 Y114.4202
G1 X336.0423 Y114.2656
G1 X336.0424 Y116.8663
G1 F800.0 X333.5024 Y116.8664
G1 F1000.0 X333.5063 Y467.0869
G1 Y467.0883
G2 Y468.2536 I3601.0634 J0.5909
G3 X333.5019 Y468.5501 I-9.715 J0.0015
G1 X333.5061 Y639.8254
G1 X345.1351 Y639.5511
G1 X345.1347 Y209.2569
G3 X345.1351 Y209.1726 I9.715 J0.0
G1 Y111.9394
G1 X333.5022 Y111.665
G1 X333.5024 Y116.8664
G1 F800.0 X330.9624 Y116.8665
G1 F1000.0 X330.9663 Y467.0868
G1 Y467.0879
G2 Y468.254 I3603.6034 J0.5913
G3 X330.9619 Y468.5086 I-7.175 J0.0011
G1 X330.9661 Y642.426
G1 X347.6751 Y642.0319
G1 X347.6747 Y209.2569
G3 X347.6751 Y209.1844 I7.175 J0.0
G1 Y109.4586
G1 X330.9621 Y109.0644
G1 X330.9624 Y116.8665
G0 Z3.0
G0 X338.5829 Y116.8662
G0 Z-2.0
G1 F800.0 Z-6.0
G1 F1000.0 X338.5869 Y468.0252
G3 X338.5867 Y468.0874 I-14.795 J-0.0002
G1 X338.5868 Y473.6492
G3 X338.5824 Y474.0128 I-14.795 J0.0003
G1 X338.5864 Y634.6242
G1 X340.0551 Y634.5895
G1 X340.0547 Y209.2569
G3 X340.0551 Y209.1528 I14.795 J0.0
G1 Y116.901
G1 X338.5829 Y116.8662
G1 F800.0 X338.6428 Y114.327
G1 F1000.0 X336.0428 Y114.2656
G1 X336.0469 Y468.0251
G3 X336.0467 Y468.0818 I-12.255 J-0.0002
G1 X336.0468 Y473.6492
G3 X336.0424 Y473.9802 I-12.255 J0.0003
G1 X336.0464 Y637.2248
G1 X342.5951 Y637.0703
G1 X342.5947 Y209.2569
G3 X342.5951 Y209.1622 I12.255 J0.0
G1 Y114.4202
G1 X338.6428 Y114.327
G1 F800.0 X338.7027 Y111.7877
G1 F1000.0 X333.5027 Y111.665
G1 X333.5069 Y468.0251
G3 X333.5067 Y468.0756 I-9.715 J-0.0001
G1 X333.5068 Y473.6493
G3 X333.5024 Y473.944 I-9.715 J0.0002
G1 X333.5065 Y639.8254
G1 X345.1351 Y639.5511
G1 X345.1347 Y209.2569
G3 X345.1351 Y209.1726 I9.715 J0.0
G1 Y111.9394
G1 X338.7027 Y111.7877
G1 F800.0 X338.7626 Y109.2484
G1 F1000.0 X330.9626 Y109.0644
G1 X330.9669 Y468.0251
G3 X330.9667 Y468.0685 I-7.175 J-0.0001
G1 X330.9668 Y473.6493
G3 X330.9624 Y473.9026 I-7.175 J0.0002
G1 X330.9665 Y642.426
G1 X347.6751 Y642.0319
G1 X347.6747 Y209.2569
G3 X347.6751 Y209.1844 I7.175 J0.0
G1 Y109.4586
G1 X338.7626 Y109.2484
G0 Z3.0
G0 X338.5834 Y116.8663
G0 Z-5.0
G1 F800.0 Z-9.0
G1 F1000.0 X338.5875 Y458.5475
G3 X338.5874 Y458.6053 I-14.795 J-0.0001
G1 X338.5875 Y467.0785
G3 X338.5869 Y467.214 I-14.795 J0.0002
G2 X338.5868 Y468.6623 I79.7632 J0.7294
G3 X338.5871 Y468.8799 I-14.7944 J0.1333
G1 X338.5874 Y479.0435
G3 X338.5829 Y479.4066 I-14.795 J0.0003
G1 X338.5868 Y634.6241
G1 X340.0551 Y634.5895
G1 X340.0547 Y275.8522
G3 X340.0551 Y275.7526 I14.795 J0.0
G1 X340.055 Y239.098
G3 X340.0551 Y239.0382 I14.795 J0.0
G1 Y116.901
G1 X338.5834 Y116.8663
G1 F800.0 X338.6433 Y114.327
G1 F1000.0 X336.0433 Y114.2656
G1 X336.0475 Y458.5475
G3 X336.0474 Y458.6001 I-12.255 J-0.0001
G1 X336.0475 Y467.0786
G3 X336.047 Y467.1908 I-12.255 J0.0002
G2 X336.0469 Y468.6852 I82.3031 J0.7527
G3 X336.0471 Y468.8723 I-12.2545 J0.1104
G1 X336.0474 Y479.0435
G3 X336.0429 Y479.3741 I-12.255 J0.0003
G1 X336.0468 Y637.2248
G1 X342.5951 Y637.0703
G1 X342.5947 Y275.8522
G3 X342.5951 Y275.7616 I12.255 J0.0
G1 X342.595 Y239.098
G3 X342.5951 Y239.0436 I12.255 J0.0
G1 Y114.4202
G1 X338.6433 Y114.327
G1 F800.0 X338.7032 Y111.7877
G1 F1000.0 X333.5032 Y111.665
G1 X333.5075 Y458.5475
G3 X333.5074 Y458.5943 I-9.715 J-0.0001
G1 X333.5075 Y467.0786
G3 X333.5071 Y467.1676 I-9.715 J0.0001
G2 X333.507 Y468.7081 I84.843 J0.7759
G3 X333.5071 Y468.864 I-9.7146 J0.0875
G1 X333.5074 Y479.0436
G3 X333.5029 Y479.3379 I-9.715 J0.0002
G1 X333.5069 Y639.8254
G1 X345.1351 Y639.5511
G1 X345.1347 Y275.8522
G3 X345.1351 Y275.7715 I9.715 J0.0
G1 X345.135 Y239.098
G3 X345.1351 Y239.0496 I9.715 J0.0
G1 Y111.9394
G1 X338.7032 Y111.7877
G1 F800.0 X338.7631 Y109.2484
G1 F1000.0 X330.9631 Y109.0644
G1 X330.9675 Y458.5475
G3 X330.9674 Y458.5878 I-7.175 J-0.0001
G1 X330.9675 Y467.0786
G3 X330.9672 Y467.1443 I-7.175 J0.0001
G2 X330.9671 Y468.7309 I87.3829 J0.7991
G3 Y468.8544 I-7.1747 J0.0647
G1 X330.9674 Y479.0437
G3 X330.9629 Y479.2965 I-7.175 J0.0002
G1 X330.967 Y642.426
G1 X347.6751 Y642.0319
G1 X347.6747 Y275.8522
G3 X347.6751 Y275.7828 I7.175 J0.0
G1 X347.675 Y239.098
G3 X347.6751 Y239.0564 I7.175 J0.0
G1 Y109.4586
G1 X338.7631 Y109.2484
G0 Z3.0
G0 X338.5839 Y116.8663
G0 Z-8.0
G1 F800.0 Z-12.0
G1 F1000.0 X338.5881 Y454.6945
G3 X338.5879 Y454.7641 I-14.795 J-0.0001
G1 X338.5881 Y467.0745
G3 X338.5874 Y467.21 I-14.795 J0.0002
G2 X338.5873 Y469.4329 I122.4249 J1.1196
G3 X338.5875 Y469.6678 I-14.7944 J0.1333
G1 X338.5879 Y484.4378
G3 X338.5834 Y484.8004 I-14.795 J0.0003
G1 X338.5872 Y634.6241
G1 X340.0551 Y634.5895
G1 X340.0547 Y275.8522
G3 X340.0551 Y275.7526 I14.795 J0.0
G1 X340.055 Y239.098
G3 X340.0551 Y239.0382 I14.795 J0.0
G1 Y116.901
G1 X338.5839 Y116.8663
G1 F800.0 X336.0439 Y116.8664
G1 F1000.0 X336.0481 Y454.6944
G3 X336.0479 Y454.7578 I-12.255 J-0.0001
G1 X336.0481 Y467.0746
G3 X336.0476 Y467.1868 I-12.255 J0.0002
G2 X336.0474 Y469.4558 I124.9648 J1.1428
G3 X336.0475 Y469.6587 I-12.2545 J0.1104
G1 X336.0479 Y484.4379
G3 X336.0434 Y484.7679 I-12.255 J0.0003
G1 X336.0472 Y637.2248
G1 X342.5951 Y637.0703
G1 X342.5947 Y275.8522
G3 X342.5951 Y275.7616 I12.255 J0.0
G1 X342.595 Y239.098
G3 X342.5951 Y239.0436 I12.255 J0.0
G1 Y114.4202
G1 X336.0438 Y114.2657
G1 X336.0439 Y116.8664
G1 F800.0 X333.5039
G1 F1000.0 X333.5081 Y454.6944
G3 X333.5079 Y454.7509 I-9.715 J-0.0001
G1 X333.5081 Y467.0746
G3 X333.5077 Y467.1636 I-9.715 J0.0001
G2 X333.5075 Y469.4787 I127.5047 J1.166
G3 Y469.6486 I-9.7146 J0.0875
G1 X333.5079 Y484.4379
G3 X333.5034 Y484.7318 I-9.715 J0.0002
G1 X333.5073 Y639.8254
G1 X345.1351 Y639.5511
G1 X345.1347 Y275.8522
G3 X345.1351 Y275.7715 I9.715 J0.0
G1 X345.135 Y239.098
G3 X345.1351 Y239.0496 I9.715 J0.0
G1 Y111.9394
G1 X333.5038 Y111.665
G1 X333.5039 Y116.8664
G1 F800.0 X330.9639 Y116.8665
G1 F1000.0 X330.9681 Y454.6944
G3 X330.9679 Y454.743 I-7.175 J-0.0001
G1 X330.9681 Y467.0746
G3 X330.9678 Y467.1403 I-7.175 J0.0001
G2 X330.9676 Y469.5016 I130.0446 J1.1893
G3 X330.9675 Y469.637 I-7.1747 J0.0647
G1 X330.9679 Y484.438
G3 X330.9634 Y484.6905 I-7.175 J0.0002
G1 X330.9674 Y642.426
G1 X347.6751 Y642.0319
G1 X347.6747 Y275.8522
G3 X347.6751 Y275.7828 I7.175 J0.0
G1 X347.675 Y239.098
G3 X347.6751 Y239.0564 I7.175 J0.0
G1 Y109.4586
G1 X330.9637 Y109.0644
G1 X330.9639 Y116.8665
G0 Z3.0
G0 X338.5845 Y116.8663
G0 Z-11.0
G1 F800.0 Z-15.0
G1 F1000.0 X338.5887 Y450.8414
G3 X338.5884 Y450.9345 I-14.795 J-0.0001
G1 X338.5886 Y467.0705
G3 X338.5883 Y467.1764 I-14.795 J0.0002
G2 X338.5884 Y470.3107 I911.4369 J1.5274
G3 X338.588 Y470.4532 I-14.795 J0.0261
G1 X338.5884 Y489.8321
G3 X338.5839 Y490.1942 I-14.795 J0.0003
G1 X338.5876 Y634.6241
G1 X340.0551 Y634.5895
G1 X340.0547 Y275.8522
G3 X340.0551 Y275.7526 I14.795 J0.0
G1 X340.055 Y239.098
G3 X340.0551 Y239.0382 I14.795 J0.0
G1 Y116.901
G1 X338.5845 Y116.8663
G1 F800.0 X338.6444 Y114.327
G1 F1000.0 X336.0444 Y114.2657
G1 X336.0487 Y450.8414
G3 X336.0484 Y450.9261 I-12.255 J-0.0001
G1 X336.0486 Y467.0706
G3 X336.0483 Y467.1648 I-12.255 J0.0002
G2 X336.0484 Y470.3152 I913.9769 J1.5389
G3 X336.048 Y470.4428 I-12.255 J0.0216
G1 X336.0484 Y489.8322
G3 X336.0439 Y490.1618 I-12.255 J0.0003
G1 X336.0476 Y637.2247
G1 X342.5951 Y637.0703
G1 X342.5947 Y275.8522
G3 X342.5951 Y275.7616 I12.255 J0.0
G1 X342.595 Y239.098
G3 X342.5951 Y239.0436 I12.255 J0.0
G1 Y114.4202
G1 X338.6444 Y114.327
G1 F800.0 X338.7043 Y111.7877
G1 F1000.0 X333.5043 Y111.6651
G1 X333.5087 Y450.8413
G3 X333.5084 Y450.9168 I-9.715 J-0.0001
G1 X333.5086 Y467.0706
G3 X333.5083 Y467.1525 I-9.715 J0.0001
G2 X333.5084 Y470.3197 I916.5169 J1.5513
G3 X333.508 Y470.4312 I-9.715 J0.0171
G1 X333.5084 Y489.8322
G3 X333.5039 Y490.1257 I-9.715 J0.0002
G1 X333.5077 Y639.8254
G1 X345.1351 Y639.5511
G1 X345.1347 Y275.8522
G3 X345.1351 Y275.7715 I9.715 J0.0
G1 X345.135 Y239.098
G3 X345.1351 Y239.0496 I9.715 J0.0
G1 Y111.9394
G1 X338.7043 Y111.7877
G1 F800.0 X338.7641 Y109.2484
G1 F1000.0 X330.9642 Y109.0644
G1 X330.9687 Y450.8413
G3 X330.9684 Y450.9062 I-7.175 J-0.0001
G1 X330.9686 Y467.0706
G3 X330.9683 Y467.139 I-7.175 J0.0001
G2 X330.9684 Y470.3242 I919.0568 J1.5648
G3 X330.968 Y470.4179 I-7.175 J0.0127
G1 X330.9684 Y489.8323
G3 X330.9639 Y490.0845 I-7.175 J0.0002
G1 X330.9678 Y642.426
G1 X347.6751 Y642.0319
G1 X347.6747 Y275.8522
G3 X347.6751 Y275.7828 I7.175 J0.0
G1 X347.675 Y239.098
G3 X347.6751 Y239.0564 I7.175 J0.0
G1 Y109.4586
G1 X338.7641 Y109.2484
G0 Z3.0
G0 X338.585 Y116.8663
G0 Z-14.0
G1 F800.0 Z-18.0
G1 F1000.0 X338.5893 Y446.9883
G3 X338.5889 Y447.0919 I-14.795 J-0.0001
G1 X338.5892 Y467.0665
G3 X338.5888 Y467.1814 I-14.795 J0.0002
G2 X338.5889 Y471.0814 I1131.1078 J1.9057
G3 X338.5884 Y471.2369 I-14.795 J0.0261
G1 X338.5889 Y495.2264
G3 X338.5845 Y495.588 I-14.795 J0.0003
G1 X338.588 Y634.6241
G1 X340.0551 Y634.5895
G1 X340.0547 Y275.8522
G3 X340.0551 Y275.7526 I14.795 J0.0
G1 X340.055 Y239.098
G3 X340.0551 Y239.0382 I14.795 J0.0
G1 Y116.901
G1 X338.585 Y116.8663
G1 F800.0 X338.6449 Y114.327
G1 F1000.0 X336.0449 Y114.2657
G1 X336.0493 Y446.9883
G3 X336.0489 Y447.0826 I-12.255 J-0.0001
G1 X336.0492 Y467.0666
G3 X336.0488 Y467.1691 I-12.255 J0.0002
G2 X336.0489 Y471.0858 I1133.6478 J1.918
G3 X336.0484 Y471.2253 I-12.255 J0.0216
G1 X336.0489 Y495.2265
G3 X336.0445 Y495.5556 I-12.255 J0.0003
G1 X336.048 Y637.2247
G1 X342.5951 Y637.0703
G1 X342.5947 Y275.8522
G3 X342.5951 Y275.7616 I12.255 J0.0
G1 X342.595 Y239.098
G3 X342.5951 Y239.0436 I12.255 J0.0
G1 Y114.4202
G1 X338.6449 Y114.327
G1 F800.0 X338.7048 Y111.7877
G1 F1000.0 X333.5048 Y111.6651
G1 X333.5093 Y446.9882
G3 X333.5089 Y447.0722 I-9.715 J-0.0001
G1 X333.5092 Y467.0666
G3 X333.5088 Y467.1558 I-9.715 J0.0001
G2 X333.5089 Y471.0903 I1136.1878 J1.9313
G3 X333.5084 Y471.2124 I-9.715 J0.0171
G1 X333.5089 Y495.2265
G3 X333.5045 Y495.5196 I-9.715 J0.0002
G1 X333.5081 Y639.8253
G1 X345.1351 Y639.5511
G1 X345.1347 Y275.8522
G3 X345.1351 Y275.7715 I9.715 J0.0
G1 X345.135 Y239.098
G3 X345.1351 Y239.0496 I9.715 J0.0
G1 Y111.9394
G1 X338.7048 Y111.7877
G1 F800.0 X338.7647 Y109.2484
G1 F1000.0 X330.9647 Y109.0644
G1 X330.9693 Y446.9882
G3 X330.9689 Y447.0604 I-7.175 J-0.0001
G1 X330.9692 Y467.0666
G3 X330.9688 Y467.1413 I-7.175 J0.0001
G2 X330.9689 Y471.0948 I1138.7278 J1.9458
G3 X330.9684 Y471.1977 I-7.175 J0.0127
G1 X330.9689 Y495.2266
G3 X330.9645 Y495.4784 I-7.175 J0.0002
G1 X330.9682 Y642.426
G1 X347.6751 Y642.0319
G1 X347.6747 Y275.8522
G3 X347.6751 Y275.7828 I7.175 J0.0
G1 X347.675 Y239.098
G3 X347.6751 Y239.0564 I7.175 J0.0
G1 Y109.4586
G1 X338.7647 Y109.2484
G0 Z3.0
G0 X338.5855 Y116.8663
G0 Z-17.0
G1 F800.0 Z-21.0
G1 F1000.0 X338.5898 Y443.1352
G3 X338.5895 Y443.2321 I-14.795 J-0.0001
G1 X338.5898 Y467.0625
G3 X338.5893 Y467.1857 I-14.795 J0.0002
G2 X338.5894 Y471.852 I1350.7788 J2.2847
G3 X338.5888 Y472.0194 I-14.795 J0.0261
G1 X338.5894 Y500.6207
G3 X338.585 Y500.9818 I-14.795 J0.0003
G1 X338.5884 Y634.6241
G1 X340.0551 Y634.5895
G1 X340.0547 Y275.8522
G3 X340.0551 Y275.7526 I14.795 J0.0
G1 X340.055 Y239.098
G3 X340.0551 Y239.0382 I14.795 J0.0
G1 Y116.901
G1 X338.5855 Y116.8663
G1 F800.0 X338.6454 Y114.327
G1 F1000.0 X336.0454 Y114.2657
G1 X336.0498 Y443.1352
G3 X336.0495 Y443.2234 I-12.255 J-0.0001
G1 X336.0498 Y467.0626
G3 X336.0493 Y467.1726 I-12.255 J0.0002
G2 X336.0494 Y471.8564 I1353.3188 J2.2978
G3 X336.0488 Y472.0067 I-12.255 J0.0216
G1 X336.0494 Y500.6208
G3 X336.045 Y500.9494 I-12.255 J0.0003
G1 X336.0485 Y637.2247
G1 X342.5951 Y637.0703
G1 X342.5947 Y275.8522
G3 X342.5951 Y275.7616 I12.255 J0.0
G1 X342.595 Y239.098
G3 X342.5951 Y239.0436 I12.255 J0.0
G1 Y114.4202
G1 X338.6454 Y114.327
G1 F800.0 X338.7053 Y111.7877
G1 F1000.0 X333.5053 Y111.6651
G1 X333.5098 Y443.1352
G3 X333.5095 Y443.2138 I-9.715 J-0.0001
G1 X333.5098 Y467.0626
G3 X333.5093 Y467.1585 I-9.715 J0.0001
G2 X333.5094 Y471.8609 I1355.8587 J2.3119
G3 X333.5088 Y471.9927 I-9.715 J0.0171
G1 X333.5094 Y500.6208
G3 X333.505 Y500.9135 I-9.715 J0.0002
G1 X333.5085 Y639.8253
G1 X345.1351 Y639.5511
G1 X345.1347 Y275.8522
G3 X345.1351 Y275.7715 I9.715 J0.0
G1 X345.135 Y239.098
G3 X345.1351 Y239.0496 I9.715 J0.0
G1 Y111.9394
G1 X338.7053 Y111.7877
G1 F800.0 X338.7652 Y109.2484
G1 F1000.0 X330.9652 Y109.0645
G1 X330.9698 Y443.1351
G3 X330.9695 Y443.2027 I-7.175 J-0.0001
G1 X330.9698 Y467.0626
G3 X330.9693 Y467.143 I-7.175 J0.0001
G2 X330.9694 Y471.8654 I1358.3987 J2.3274
G3 X330.9688 Y471.9766 I-7.175 J0.0127
G1 X330.9694 Y500.6209
G3 X330.965 Y500.8724 I-7.175 J0.0002
G1 X330.9686 Y642.426
G1 X347.6751 Y642.0319
G1 X347.6747 Y275.8522
G3 X347.6751 Y275.7828 I7.175 J0.0
G1 X347.675 Y239.098
G3 X347.6751 Y239.0564 I7.175 J0.0
G1 Y109.4586
G1 X338.7652 Y109.2484
G0 Z3.0
G0 X338.5857 Y116.8663
G0 Z-20.0
G1 F800.0 Z-24.0
G1 F1000.0 X338.5905 Y439.2818
G3 X338.59 Y439.404 I-14.795 J0.0002
G1 X338.5903 Y467.0585
G3 X338.5898 Y467.1892 I-14.795 J0.0002
G2 X338.59 Y472.6226 I1570.4497 J2.6645
G3 X338.5892 Y472.801 I-14.795 J0.0261
G1 X338.5899 Y506.015
G3 X338.5855 Y506.3756 I-14.795 J0.0003
G1 X338.5888 Y634.6241
G1 X340.0551 Y634.5895
G1 X340.0547 Y275.8522
G3 X340.0551 Y275.7526 I14.795 J0.0
G1 X340.055 Y239.098
G3 X340.0551 Y239.0382 I14.795 J0.0
G1 Y116.901
G1 X338.5857 Y116.8663
G1 F800.0 X338.6456 Y114.327
G1 F1000.0 X336.0457 Y114.2657
G1 X336.0505 Y439.2818
G3 X336.05 Y439.3931 I-12.255 J0.0002
G1 X336.0503 Y467.0586
G3 X336.0498 Y467.1755 I-12.255 J0.0002
G2 X336.05 Y472.6271 I1572.9897 J2.6782
G3 X336.0492 Y472.7873 I-12.255 J0.0216
G1 X336.0499 Y506.0151
G3 X336.0455 Y506.3433 I-12.255 J0.0003
G1 X336.0489 Y637.2247
G1 X342.5951 Y637.0703
G1 X342.5947 Y275.8522
G3 X342.5951 Y275.7616 I12.255 J0.0
G1 X342.595 Y239.098
G3 X342.5951 Y239.0436 I12.255 J0.0
G1 Y114.4202
G1 X338.6456 Y114.327
G1 F800.0 X338.7055 Y111.7877
G1 F1000.0 X333.5056 Y111.6651
G1 X333.5105 Y439.2819
G3 X333.51 Y439.3809 I-9.715 J0.0001
G1 X333.5103 Y467.0586
G3 X333.5098 Y467.1606 I-9.715 J0.0001
G2 X333.51 Y472.6315 I1575.5297 J2.6931
G3 X333.5092 Y472.7722 I-9.715 J0.0171
G1 X333.5099 Y506.0151
G3 X333.5055 Y506.3074 I-9.715 J0.0002
G1 X333.5089 Y639.8253
G1 X345.1351 Y639.5511
G1 X345.1347 Y275.8522
G3 X345.1351 Y275.7715 I9.715 J0.0
G1 X345.135 Y239.098
G3 X345.1351 Y239.0496 I9.715 J0.0
G1 Y111.9394
G1 X338.7055 Y111.7877
G1 F800.0 X338.7654 Y109.2484
G1 F1000.0 X330.9656 Y109.0645
G1 X330.9705 Y439.2819
G3 X330.97 Y439.367 I-7.175 J0.0001
G1 X330.9703 Y467.0586
G3 X330.9698 Y467.1443 I-7.175 J0.0001
G2 X330.97 Y472.636 I1578.0697 J2.7094
G3 X330.9692 Y472.7548 I-7.175 J0.0127
G1 X330.9699 Y506.0152
G3 X330.9655 Y506.2663 I-7.175 J0.0002
G1 X330.969 Y642.4259
G1 X347.6751 Y642.0319
G1 X347.6747 Y275.8522
G3 X347.6751 Y275.7828 I7.175 J0.0
G1 X347.675 Y239.098
G3 X347.6751 Y239.0564 I7.175 J0.0
G1 Y109.4586
G1 X338.7654 Y109.2484
G0 Z3.0
G0 X338.5862 Y116.8663
G0 Z-23.0
G1 F800.0 Z-27.0
G1 F1000.0 X338.5909 Y435.4287
G3 X338.5905 Y435.5405 I-14.795 J0.0002
G1 X338.5909 Y467.0545
G3 X338.5904 Y467.1792 I-14.795 J0.0002
G1 X338.5905 Y473.419
G3 X338.5904 Y473.4743 I-14.795 J0.0002
G1 X338.59 Y492.4147
G3 X338.5863 Y492.7449 I-14.795 J-0.0003
G1 X338.5899 Y634.6241
G1 X340.0551 Y634.5895
G1 X340.0547 Y275.8522
G3 X340.0551 Y275.7526 I14.795 J0.0
G1 X340.055 Y239.098
G3 X340.0551 Y239.0382 I14.795 J0.0
G1 Y116.901
G1 X338.5862 Y116.8663
G1 F800.0 X338.6461 Y114.327
G1 F1000.0 X336.0462 Y114.2657
G1 X336.0509 Y435.4287
G3 X336.0505 Y435.5305 I-12.255 J0.0002
G1 X336.0509 Y467.0546
G3 X336.0504 Y467.168 I-12.255 J0.0002
G1 X336.0505 Y473.4191
G3 X336.0504 Y473.4693 I-12.255 J0.0002
G1 X336.05 Y492.4147
G3 X336.0463 Y492.7152 I-12.255 J-0.0002
G1 X336.05 Y637.2247
G1 X342.5951 Y637.0703
G1 X342.5947 Y275.8522
G3 X342.5951 Y275.7616 I12.255 J0.0
G1 X342.595 Y239.098
G3 X342.5951 Y239.0436 I12.255 J0.0
G1 Y114.4202
G1 X338.6461 Y114.327
G1 F800.0 X338.706 Y111.7877
G1 F1000.0 X333.5062 Y111.6651
G1 X333.5109 Y435.4288
G3 X333.5105 Y435.5194 I-9.715 J0.0001
G1 X333.5109 Y467.0546
G3 X333.5104 Y467.1546 I-9.715 J0.0001
G3 Y467.157 I-9.7149 J-0.042
G1 X333.5105 Y473.4191
G3 X333.5104 Y473.4638 I-9.715 J0.0002
G1 X333.51 Y492.4146
G3 X333.5063 Y492.6823 I-9.715 J-0.0002
G1 X333.51 Y638.5638
G3 X333.5061 Y638.839 I-9.715 J0.0002
G1 X333.5062 Y639.8254
G1 X345.1351 Y639.5511
G1 X345.1347 Y275.8522
G3 X345.1351 Y275.7715 I9.715 J0.0
G1 X345.135 Y239.098
G3 X345.1351 Y239.0496 I9.715 J0.0
G1 Y111.9394
G1 X338.706 Y111.7877
G1 F800.0 X338.7659 Y109.2484
G1 F1000.0 X330.9661 Y109.0645
G1 X330.9709 Y435.4288
G3 X330.9705 Y435.5067 I-7.175 J0.0001
G1 X330.9709 Y467.0546
G3 X330.9705 Y467.1361 I-7.175 J0.0001
G3 X330.9704 Y467.1508 I-7.175 J-0.0234
G1 X330.9705 Y473.4192
G3 X330.9704 Y473.4575 I-7.175 J0.0001
G1 X330.97 Y492.4146
G3 X330.9663 Y492.6446 I-7.175 J-0.0001
G1 X330.97 Y638.5638
G3 X330.9661 Y638.8003 I-7.175 J0.0002
G1 X330.9662 Y642.426
G1 X347.6751 Y642.0319
G1 X347.6747 Y275.8522
G3 X347.6751 Y275.7828 I7.175 J0.0
G1 X347.675 Y239.098
G3 X347.6751 Y239.0564 I7.175 J0.0
G1 Y109.4586
G1 X338.7659 Y109.2484
G0 Z3.0
G0 X338.5871 Y116.8663
G0 Z-26.0
G1 F800.0 Z-30.0
G1 F1000.0 X338.5915 Y431.576
G3 X338.591 Y431.6941 I-14.795 J-0.0001
G1 X338.5915 Y467.0505
G3 X338.5909 Y467.1826 I-14.795 J0.0002
G1 X338.591 Y474.1897
G3 X338.5909 Y474.2481 I-14.795 J0.0002
G1 X338.5905 Y495.4972
G3 X338.5872 Y495.8068 I-14.795 J-0.0003
G1 X338.5905 Y624.6921
G3 X338.5868 Y625.023 I-14.795 J0.0004
G1 X338.587 Y634.6241
G1 X340.0551 Y634.5895
G1 X340.0547 Y275.8522
G3 X340.0551 Y275.7526 I14.795 J0.0
G1 X340.055 Y239.098
G3 X340.0551 Y239.0382 I14.795 J0.0
G1 Y116.901
G1 X338.5871 Y116.8663
G1 F800.0 X336.0471 Y116.8664
G1 F1000.0 X336.0515 Y431.5759
G3 X336.051 Y431.6834 I-12.255 J-0.0001
G1 X336.0515 Y467.0506
G3 X336.0509 Y467.1707 I-12.255 J0.0002
G1 X336.051 Y474.1897
G3 X336.0509 Y474.2429 I-12.255 J0.0002
G1 X336.0505 Y495.4971
G3 X336.0472 Y495.779 I-12.255 J-0.0002
G1 X336.0505 Y624.6922
G3 X336.0468 Y624.9933 I-12.255 J0.0003
G1 X336.0471 Y637.2248
G1 X342.5951 Y637.0703
G1 X342.5947 Y275.8522
G3 X342.5951 Y275.7616 I12.255 J0.0
G1 X342.595 Y239.098
G3 X342.5951 Y239.0436 I12.255 J0.0
G1 Y114.4202
G1 X336.047 Y114.2657
G1 X336.0471 Y116.8664
G1 F800.0 X333.5071 Y116.8665
G1 F1000.0 X333.5115 Y431.5759
G3 X333.511 Y431.6717 I-9.715 J-0.0001
G1 X333.5115 Y467.0506
G3 X333.5109 Y467.1541 I-9.715 J0.0001
G3 Y467.1627 I-9.7149 J-0.0384
G1 X333.511 Y474.1897
G3 X333.5109 Y474.237 I-9.715 J0.0002
G1 X333.5105 Y495.4971
G3 X333.5072 Y495.7481 I-9.715 J-0.0002
G1 X333.5105 Y624.6922
G3 X333.5068 Y624.9604 I-9.715 J0.0002
G1 X333.5072 Y639.8254
G1 X345.1351 Y639.5511
G1 X345.1347 Y275.8522
G3 X345.1351 Y275.7715 I9.715 J0.0
G1 X345.135 Y239.098
G3 X345.1351 Y239.0496 I9.715 J0.0
G1 Y111.9394
G1 X333.5069 Y111.6651
G1 X333.5071 Y116.8665
G1 F800.0 X330.9671 Y116.8666
G1 F1000.0 X330.9715 Y431.5759
G3 X330.971 Y431.6582 I-7.175 J-0.0001
G1 X330.9715 Y467.0506
G3 X330.971 Y467.1356 I-7.175 J0.0001
G3 X330.9709 Y467.1561 I-7.175 J-0.0199
G1 X330.971 Y474.1898
G3 X330.9709 Y474.2304 I-7.175 J0.0001
G1 X330.9705 Y495.497
G3 X330.9672 Y495.7128 I-7.175 J-0.0001
G1 X330.9705 Y624.6923
G3 X330.9668 Y624.9227 I-7.175 J0.0002
G1 X330.9672 Y641.4122
G3 X330.9665 Y641.5124 I-7.175 J0.0002
G1 X330.9666 Y642.426
G1 X347.6751 Y642.0319
G1 X347.6747 Y275.8522
G3 X347.6751 Y275.7828 I7.175 J0.0
G1 X347.675 Y239.098
G3 X347.6751 Y239.0564 I7.175 J0.0
G1 Y109.4586
G1 X330.9668 Y109.0645
G1 X330.9671 Y116.8666
G0 Z3.0
G0 X338.5873 Y116.8665
G0 Z-29.0
G1 F800.0 Z-33.0
G1 F1000.0 X338.5922 Y427.7225
G3 X338.5915 Y427.868 I-14.795 J0.0002
G1 X338.5921 Y467.0465
G3 X338.5914 Y467.1856 I-14.795 J0.0002
G1 X338.5915 Y474.9603
G3 X338.5914 Y475.0218 I-14.795 J0.0002
G1 X338.5909 Y498.5797
G3 X338.5881 Y498.8673 I-14.795 J-0.0003
G1 X338.5909 Y610.8206
G3 X338.5874 Y611.1426 I-14.795 J0.0004
G1 X338.5881 Y634.6241
G1 X340.0551 Y634.5895
G1 X340.0547 Y275.8522
G3 X340.0551 Y275.7526 I14.795 J0.0
G1 X340.055 Y239.098
G3 X340.0551 Y239.0382 I14.795 J0.0
G1 Y116.901
G1 X338.5873 Y116.8664
G1 Y116.8665
G1 F800.0 X336.0473 Y116.8666
G1 F1000.0 X336.0522 Y427.7225
G3 X336.0515 Y427.8549 I-12.255 J0.0002
G1 X336.0521 Y467.0466
G3 X336.0514 Y467.1722 I-12.255 J0.0002
G3 Y467.1743 I-12.2549 J-0.0535
G1 X336.0515 Y474.9603
G3 X336.0514 Y475.0163 I-12.255 J0.0002
G1 X336.0509 Y498.5796
G3 X336.0481 Y498.8415 I-12.255 J-0.0002
G1 X336.0509 Y610.8207
G3 X336.0474 Y611.1137 I-12.255 J0.0003
G1 X336.0481 Y636.7882
G3 X336.0471 Y636.9514 I-12.255 J0.0003
G1 Y637.2248
G1 X342.5951 Y637.0703
G1 X342.5947 Y275.8522
G3 X342.5951 Y275.7616 I12.255 J0.0
G1 X342.595 Y239.098
G3 X342.5951 Y239.0436 I12.255 J0.0
G1 Y114.4202
G1 X336.0472 Y114.2657
G1 X336.0473 Y116.8666
G1 F800.0 X333.5073
G1 F1000.0 X333.5122 Y427.7226
G3 X333.5115 Y427.8405 I-9.715 J0.0002
G1 X333.5121 Y467.0466
G3 X333.5115 Y467.1536 I-9.715 J0.0001
G3 X333.5114 Y467.1682 I-9.7149 J-0.0349
G1 X333.5115 Y474.9603
G3 X333.5114 Y475.0101 I-9.715 J0.0002
G1 X333.5109 Y498.5796
G3 X333.5081 Y498.8128 I-9.715 J-0.0002
G1 X333.5109 Y610.8207
G3 X333.5074 Y611.0816 I-9.715 J0.0002
G1 X333.5081 Y636.7882
G3 X333.5071 Y636.9336 I-9.715 J0.0003
G1 Y639.8254
G1 X345.1351 Y639.5511
G1 X345.1347 Y275.8522
G3 X345.1351 Y275.7715 I9.715 J0.0
G1 X345.135 Y239.098
G3 X345.1351 Y239.0496 I9.715 J0.0
G1 Y111.9394
G1 X333.5072 Y111.6651
G1 X333.5073 Y116.8666
G1 F800.0 X330.9673
G1 F1000.0 X330.9722 Y427.7226
G3 X330.9715 Y427.8239 I-7.175 J0.0001
G1 X330.9721 Y467.0466
G3 X330.9715 Y467.1351 I-7.175 J0.0001
G3 X330.9714 Y467.1613 I-7.175 J-0.0164
G1 X330.9715 Y474.9604
G3 X330.9714 Y475.0031 I-7.175 J0.0001
G1 X330.9709 Y498.5795
G3 X330.9681 Y498.78 I-7.175 J-0.0001
G1 X330.9709 Y610.8208
G3 X330.9674 Y611.045 I-7.175 J0.0002
G1 X330.9681 Y636.7883
G3 X330.967 Y636.9132 I-7.175 J0.0002
G1 X330.9672 Y642.426
G1 X347.6751 Y642.0319
G1 X347.6747 Y275.8522
G3 X347.6751 Y275.7828 I7.175 J0.0
G1 X347.675 Y239.098
G3 X347.6751 Y239.0564 I7.175 J0.0
G1 Y109.4586
G1 X330.9672 Y109.0645
G1 X330.9673 Y116.8666
G0 Z3.0
G0 X338.5882 Y116.8664
G0 Z-32.0
G1 F800.0 Z-36.0
G1 F1000.0 X338.5926 Y423.8698
G3 X338.5921 Y424.0001 I-14.795 J-0.0001
G1 X338.5926 Y467.0426
G3 X338.5919 Y467.1882 I-14.795 J0.0002
G1 X338.5921 Y475.7309
G3 X338.5919 Y475.7953 I-14.795 J0.0002
G1 X338.5914 Y501.6621
G3 X338.589 Y501.926 I-14.795 J-0.0003
G1 X338.5914 Y596.9491
G3 X338.5881 Y597.2618 I-14.795 J0.0004
G1 X338.589 Y632.1643
G3 X338.5876 Y632.3731 I-14.795 J0.0004
G1 Y634.6241
G1 X340.0551 Y634.5895
G1 X340.0547 Y275.8522
G3 X340.0551 Y275.7526 I14.795 J0.0
G1 X340.055 Y239.098
G3 X340.0551 Y239.0382 I14.795 J0.0
G1 Y116.901
G1 X338.5882 Y116.8664
G1 F800.0 X336.0482 Y116.8665
G1 F1000.0 X336.0526 Y423.8698
G3 X336.0521 Y423.9884 I-12.255 J-0.0001
G1 X336.0526 Y467.0426
G3 X336.052 Y467.1717 I-12.255 J0.0002
G3 X336.0519 Y467.18 I-12.2549 J-0.0499
G1 X336.0521 Y475.7309
G3 X336.0519 Y475.7895 I-12.255 J0.0002
G1 X336.0514 Y501.6621
G3 X336.049 Y501.9023 I-12.255 J-0.0002
G1 X336.0514 Y596.9492
G3 X336.0481 Y597.2338 I-12.255 J0.0003
G1 X336.049 Y632.1643
G3 X336.0476 Y632.3544 I-12.255 J0.0003
G1 X336.0477 Y637.2247
G1 X342.5951 Y637.0703
G1 X342.5947 Y275.8522
G3 X342.5951 Y275.7616 I12.255 J0.0
G1 X342.595 Y239.098
G3 X342.5951 Y239.0436 I12.255 J0.0
G1 Y114.4202
G1 X336.0481 Y114.2658
G1 X336.0482 Y116.8665
G1 F800.0 X333.5082 Y116.8666
G1 F1000.0 X333.5126 Y423.8698
G3 X333.5121 Y423.9754 I-9.715 J-0.0001
G1 X333.5126 Y467.0426
G3 X333.512 Y467.1532 I-9.715 J0.0001
G3 X333.5119 Y467.1737 I-9.7149 J-0.0314
G1 X333.5121 Y475.731
G3 X333.5119 Y475.7831 I-9.715 J0.0002
G1 X333.5114 Y501.662
G3 X333.509 Y501.8759 I-9.715 J-0.0002
G1 X333.5114 Y596.9492
G3 X333.5081 Y597.2026 I-9.715 J0.0002
G1 X333.509 Y632.1644
G3 X333.5076 Y632.3336 I-9.715 J0.0003
G1 X333.5078 Y639.8254
G1 X345.1351 Y639.5511
G1 X345.1347 Y275.8522
G3 X345.1351 Y275.7715 I9.715 J0.0
G1 X345.135 Y239.098
G3 X345.1351 Y239.0496 I9.715 J0.0
G1 Y111.9394
G1 X333.508 Y111.6651
G1 X333.5082 Y116.8666
G1 F800.0 X330.9682 Y116.8667
G1 F1000.0 X330.9726 Y423.8697
G3 X330.9721 Y423.9605 I-7.175 J-0.0001
G1 X330.9726 Y467.0427
G3 X330.972 Y467.1346 I-7.175 J0.0001
G3 X330.9719 Y467.1664 I-7.175 J-0.0129
G1 X330.9721 Y475.731
G3 X330.9719 Y475.7758 I-7.175 J0.0001
G1 X330.9714 Y501.662
G3 X330.969 Y501.8458 I-7.175 J-0.0001
G1 X330.9714 Y596.9493
G3 X330.9681 Y597.1671 I-7.175 J0.0002
G1 X330.969 Y632.1645
G3 X330.9676 Y632.3099 I-7.175 J0.0002
G1 X330.9679 Y642.426
G1 X347.6751 Y642.0319
G1 X347.6747 Y275.8522
G3 X347.6751 Y275.7828 I7.175 J0.0
G1 X347.675 Y239.098
G3 X347.6751 Y239.0564 I7.175 J0.0
G1 Y109.4586
G1 X330.9679 Y109.0645
G1 X330.9682 Y116.8667
G0 Z3.0
G0 X338.5883 Y116.8665
G0 Z-35.0
G1 F800.0 Z-39.0
G1 F1000.0 X338.5934 Y420.0163
G3 X338.5926 Y420.1754 I-14.795 J0.0002
G1 X338.5932 Y467.0386
G3 X338.5924 Y467.1898 I-14.795 J0.0002
G3 Y467.1916 I-14.7949 J-0.065
G1 X338.5926 Y476.5015
G3 X338.5924 Y476.5687 I-14.795 J0.0002
G1 X338.5919 Y504.7446
G3 X338.59 Y504.9823 I-14.795 J-0.0003
G1 X338.5919 Y583.0776
G3 X338.5888 Y583.3808 I-14.795 J0.0004
G1 X338.5899 Y627.5404
G3 X338.5881 Y627.7751 I-14.795 J0.0004
G1 X338.5883 Y634.6241
G1 X340.0551 Y634.5895
G1 X340.0547 Y275.8522
G3 X340.0551 Y275.7526 I14.795 J0.0
G1 X340.055 Y239.098
G3 X340.0551 Y239.0382 I14.795 J0.0
G1 Y116.901
G1 X338.5883 Y116.8664
G1 Y116.8665
G1 F800.0 X336.0483 Y116.8666
G1 F1000.0 X336.0534 Y420.0164
G3 X336.0526 Y420.1611 I-12.255 J0.0002
G1 X336.0532 Y467.0386
G3 X336.0525 Y467.1712 I-12.255 J0.0002
G3 X336.0524 Y467.1856 I-12.2549 J-0.0464
G1 X336.0526 Y476.5015
G3 X336.0524 Y476.5627 I-12.255 J0.0002
G1 X336.0519 Y504.7445
G3 X336.05 Y504.9609 I-12.255 J-0.0002
G1 X336.0519 Y583.0777
G3 X336.0488 Y583.3536 I-12.255 J0.0003
G1 X336.0499 Y627.5405
G3 X336.0481 Y627.7541 I-12.255 J0.0003
G1 X336.0484 Y637.2247
G1 X342.5951 Y637.0703
G1 X342.5947 Y275.8522
G3 X342.5951 Y275.7616 I12.255 J0.0
G1 X342.595 Y239.098
G3 X342.5951 Y239.0436 I12.255 J0.0
G1 Y114.4202
G1 X336.0483 Y114.2658
G1 Y116.8666
G1 F800.0 X333.5083
G1 F1000.0 X333.5134 Y420.0164
G3 X333.5126 Y420.1453 I-9.715 J0.0002
G1 X333.5132 Y467.0386
G3 X333.5125 Y467.1527 I-9.715 J0.0001
G3 X333.5124 Y467.179 I-9.715 J-0.0279
G1 X333.5126 Y476.5016
G3 X333.5124 Y476.556 I-9.715 J0.0002
G1 X333.5119 Y504.7445
G3 X333.51 Y504.9372 I-9.715 J-0.0002
G1 X333.5119 Y583.0777
G3 X333.5088 Y583.3234 I-9.715 J0.0002
G1 X333.5099 Y627.5406
G3 X333.5081 Y627.7307 I-9.715 J0.0003
G1 X333.5085 Y639.8253
G1 X345.1351 Y639.5511
G1 X345.1347 Y275.8522
G3 X345.1351 Y275.7715 I9.715 J0.0
G1 X345.135 Y239.098
G3 X345.1351 Y239.0496 I9.715 J0.0
G1 Y111.9394
G1 X333.5083 Y111.6651
G1 Y116.8666
G1 F800.0 X330.9683 Y116.8667
G1 F1000.0 X330.9734 Y420.0165
G3 X330.9726 Y420.1272 I-7.175 J0.0001
G1 X330.9732 Y467.0387
G3 X330.9726 Y467.1342 I-7.175 J0.0001
G3 X330.9724 Y467.1714 I-7.175 J-0.0093
G1 X330.9726 Y476.5016
G3 X330.9724 Y476.5483 I-7.175 J0.0001
G1 X330.9719 Y504.7444
G3 X330.9699 Y504.9101 I-7.175 J-0.0001
G1 X330.9719 Y583.0778
G3 X330.9688 Y583.2889 I-7.175 J0.0002
G1 X330.9699 Y627.5406
G3 X330.9681 Y627.7041 I-7.175 J0.0002
G1 X330.9685 Y642.426
G1 X347.6751 Y642.0319
G1 X347.6747 Y275.8522
G3 X347.6751 Y275.7828 I7.175 J0.0
G1 X347.675 Y239.098
G3 X347.6751 Y239.0564 I7.175 J0.0
G1 Y109.4586
G1 X330.9682 Y109.0645
G1 X330.9683 Y116.8667
G0 Z3.0
G0 X338.5892 Y116.8664
G0 Z-38.0
G1 F800.0 Z-42.0
G1 F1000.0 X338.5938 Y416.1636
G3 X338.5931 Y416.3051 I-14.795 J-0.0002
G1 X338.5938 Y467.0346
G3 X338.593 Y467.1893 I-14.795 J0.0002
G3 X338.5929 Y467.1973 I-14.7949 J-0.0614
G1 X338.5931 Y477.2721
G3 X338.5929 Y477.342 I-14.795 J0.0002
G1 X338.5923 Y507.827
G3 X338.5909 Y508.0353 I-14.795 J-0.0003
G1 X338.5923 Y569.2061
G3 X338.5894 Y569.4995 I-14.795 J0.0004
G1 X338.5909 Y622.9166
G3 X338.5886 Y623.1745 I-14.795 J0.0004
G1 X338.589 Y634.6241
G1 X340.0551 Y634.5895
G1 X340.0547 Y275.8522
G3 X340.0551 Y275.7526 I14.795 J0.0
G1 X340.055 Y239.098
G3 X340.0551 Y239.0382 I14.795 J0.0
G1 Y116.901
G1 X338.5892 Y116.8664
G1 F800.0 X338.6491 Y114.3271
G1 F1000.0 X336.0491 Y114.2658
G1 X336.0538 Y416.1636
G3 X336.0531 Y416.2924 I-12.255 J-0.0001
G1 X336.0538 Y467.0346
G3 X336.053 Y467.1708 I-12.255 J0.0002
G3 X336.0529 Y467.1911 I-12.2549 J-0.0429
G1 X336.0531 Y477.2721
G3 X336.0529 Y477.3357 I-12.255 J0.0002
G1 X336.0523 Y507.827
G3 X336.0509 Y508.0166 I-12.255 J-0.0002
G1 X336.0523 Y569.2062
G3 X336.0494 Y569.4732 I-12.255 J0.0003
G1 X336.0509 Y622.9167
G3 X336.0486 Y623.1514 I-12.255 J0.0003
G1 X336.049 Y637.2247
G1 X342.5951 Y637.0703
G1 X342.5947 Y275.8522
G3 X342.5951 Y275.7616 I12.255 J0.0
G1 X342.595 Y239.098
G3 X342.5951 Y239.0436 I12.255 J0.0
G1 Y114.4202
G1 X338.6491 Y114.3271
G1 F800.0 X338.709 Y111.7878
G1 F1000.0 X333.509 Y111.6652
G1 X333.5138 Y416.1636
G3 X333.5131 Y416.2783 I-9.715 J-0.0001
G1 X333.5138 Y467.0346
G3 X333.5131 Y467.1522 I-9.715 J0.0001
G3 X333.5129 Y467.1842 I-9.715 J-0.0244
G1 X333.5131 Y477.2722
G3 X333.5129 Y477.3287 I-9.715 J0.0002
G1 X333.5123 Y507.8269
G3 X333.5109 Y507.9958 I-9.715 J-0.0002
G1 X333.5123 Y569.2062
G3 X333.5094 Y569.444 I-9.715 J0.0002
G1 X333.5109 Y622.9167
G3 X333.5086 Y623.1257 I-9.715 J0.0003
G1 X333.5091 Y639.8253
G1 X345.1351 Y639.5511
G1 X345.1347 Y275.8522
G3 X345.1351 Y275.7715 I9.715 J0.0
G1 X345.135 Y239.098
G3 X345.1351 Y239.0496 I9.715 J0.0
G1 Y111.9394
G1 X338.709 Y111.7878
G1 F800.0 X338.7689 Y109.2485
G1 F1000.0 X330.9689 Y109.0645
G1 X330.9738 Y416.1636
G3 X330.9731 Y416.2622 I-7.175 J-0.0001
G1 X330.9738 Y467.0347
G3 X330.9731 Y467.1337 I-7.175 J0.0001
G3 X330.9729 Y467.1763 I-7.175 J-0.0058
G1 X330.9731 Y477.2722
G3 X330.9729 Y477.3208 I-7.175 J0.0001
G1 X330.9723 Y507.8269
G3 X330.9709 Y507.972 I-7.175 J-0.0001
G1 X330.9723 Y569.2063
G3 X330.9694 Y569.4106 I-7.175 J0.0002
G1 X330.9709 Y622.9168
G3 X330.9686 Y623.0964 I-7.175 J0.0002
G1 X330.9692 Y642.4259
G1 X347.6751 Y642.0319
G1 X347.6747 Y275.8522
G3 X347.6751 Y275.7828 I7.175 J0.0
G1 X347.675 Y239.098
G3 X347.6751 Y239.0564 I7.175 J0.0
G1 Y109.4586
G1 X338.7689 Y109.2485
G0 Z3.0
G0 X338.5898 Y116.8664
G0 Z-41.0
G1 F800.0 Z-45.0
G1 F1000.0 X338.5943 Y412.3106
G3 X338.5936 Y412.4573 I-14.795 J-0.0002
G1 X338.5943 Y467.0306
G3 X338.5935 Y467.1888 I-14.795 J0.0002
G3 X338.5934 Y467.203 I-14.7949 J-0.0579
G1 X338.5936 Y478.0427
G3 X338.5934 Y478.1152 I-14.795 J0.0002
G1 X338.5928 Y510.9095
G3 X338.5918 Y511.0834 I-14.795 J-0.0003
G1 X338.5928 Y555.3346
G3 X338.5901 Y555.6179 I-14.795 J0.0003
G1 X338.5918 Y618.2928
G3 X338.5891 Y618.572 I-14.795 J0.0004
G1 X338.5896 Y634.6241
G1 X340.0551 Y634.5895
G1 X340.0547 Y275.8522
G3 X340.0551 Y275.7526 I14.795 J0.0
G1 X340.055 Y239.098
G3 X340.0551 Y239.0382 I14.795 J0.0
G1 Y116.901
G1 X338.5898 Y116.8664
G1 F800.0 X338.6497 Y114.3271
G1 F1000.0 X336.0497 Y114.2658
G1 X336.0543 Y412.3105
G3 X336.0536 Y412.4441 I-12.255 J-0.0001
G1 X336.0543 Y467.0306
G3 X336.0535 Y467.1703 I-12.255 J0.0002
G3 X336.0534 Y467.1965 I-12.2549 J-0.0394
G1 X336.0536 Y478.0427
G3 X336.0534 Y478.1087 I-12.255 J0.0002
G1 X336.0528 Y510.9094
G3 X336.0518 Y511.0678 I-12.255 J-0.0002
G1 X336.0528 Y555.3347
G3 X336.0501 Y555.5925 I-12.255 J0.0003
G1 X336.0518 Y618.2928
G3 X336.0491 Y618.547 I-12.255 J0.0003
G1 X336.0497 Y637.2247
G1 X342.5951 Y637.0703
G1 X342.5947 Y275.8522
G3 X342.5951 Y275.7616 I12.255 J0.0
G1 X342.595 Y239.098
G3 X342.5951 Y239.0436 I12.255 J0.0
G1 Y114.4202
G1 X338.6497 Y114.3271
G1 F800.0 X338.7096 Y111.7878
G1 F1000.0 X333.5096 Y111.6652
G1 X333.5143 Y412.3105
G3 X333.5136 Y412.4295 I-9.715 J-0.0001
G1 X333.5143 Y467.0306
G3 X333.5136 Y467.1517 I-9.715 J0.0001
G3 X333.5134 Y467.1893 I-9.715 J-0.0208
G1 X333.5136 Y478.0428
G3 X333.5134 Y478.1014 I-9.715 J0.0002
G1 X333.5128 Y510.9094
G3 X333.5118 Y511.0504 I-9.715 J-0.0002
G1 X333.5128 Y555.3347
G3 X333.5101 Y555.5643 I-9.715 J0.0002
G1 X333.5118 Y618.2929
G3 X333.5091 Y618.5192 I-9.715 J0.0003
G1 X333.5098 Y639.8253
G1 X345.1351 Y639.5511
G1 X345.1347 Y275.8522
G3 X345.1351 Y275.7715 I9.715 J0.0
G1 X345.135 Y239.098
G3 X345.1351 Y239.0496 I9.715 J0.0
G1 Y111.9394
G1 X338.7096 Y111.7878
G1 F800.0 X338.7694 Y109.2485
G1 F1000.0 X330.9694 Y109.0646
G1 X330.9743 Y412.3105
G3 X330.9736 Y412.4127 I-7.175 J-0.0001
G1 X330.9743 Y467.0307
G3 X330.9736 Y467.1332 I-7.175 J0.0001
G3 X330.9734 Y467.1811 I-7.175 J-0.0023
G1 X330.9736 Y478.0428
G3 X330.9734 Y478.0932 I-7.175 J0.0001
G1 X330.9728 Y510.9093
G3 X330.9718 Y511.0306 I-7.175 J-0.0001
G1 X330.9728 Y555.3348
G3 X330.9701 Y555.532 I-7.175 J0.0002
G1 X330.9718 Y618.293
G3 X330.9691 Y618.4874 I-7.175 J0.0002
G1 X330.9699 Y642.4259
G1 X347.6751 Y642.0319
G1 X347.6747 Y275.8522
G3 X347.6751 Y275.7828 I7.175 J0.0
G1 X347.675 Y239.098
G3 X347.6751 Y239.0564 I7.175 J0.0
G1 Y109.4586
G1 X338.7694 Y109.2485
G0 Z3.0
G0 X338.5898 Y116.8664
G0 Z-44.0
G1 F800.0 Z-48.0
G1 F1000.0 X338.5897
G1 X338.595 Y444.2517
G3 X338.5939 Y444.4268 I-14.795 J0.0002
G1 X338.5943 Y467.0281
G3 X338.5939 Y467.1323 I-14.795 J0.0002
G1 Y467.1325
G3 X338.5937 Y467.2063 I-14.795 J0.0002
G1 X338.5939 Y478.5051
G3 X338.5923 Y478.7237 I-14.795 J0.0002
G1 X338.5937 Y547.0118
G3 X338.5905 Y547.3225 I-14.795 J0.0003
G1 X338.5923 Y615.5185
G3 X338.5894 Y615.8097 I-14.795 J0.0004
G1 X338.59 Y634.6241
G1 X340.0551 Y634.5895
G1 X340.0547 Y275.8522
G3 X340.0551 Y275.7526 I14.795 J0.0
G1 X340.055 Y239.098
G3 X340.0551 Y239.0382 I14.795 J0.0
G1 Y116.901
G1 X338.5898 Y116.8664
G1 F800.0 X338.6497 Y114.3271
G1 F1000.0 X336.0496 Y114.2658
G1 X336.055 Y444.2517
G3 X336.0539 Y444.4111 I-12.255 J0.0002
G1 X336.0543 Y467.0282
G3 X336.0539 Y467.123 I-12.255 J0.0002
G1 Y467.1326
G3 X336.0537 Y467.1997 I-12.255 J0.0002
G1 X336.0539 Y478.5051
G3 X336.0523 Y478.7041 I-12.255 J0.0002
G1 X336.0537 Y547.0118
G3 X336.0505 Y547.2946 I-12.255 J0.0003
G1 X336.0523 Y615.5185
G3 X336.0494 Y615.7836 I-12.255 J0.0003
G1 X336.0501 Y637.2247
G1 X342.5951 Y637.0703
G1 X342.5947 Y275.8522
G3 X342.5951 Y275.7616 I12.255 J0.0
G1 X342.595 Y239.098
G3 X342.5951 Y239.0436 I12.255 J0.0
G1 Y114.4202
G1 X338.6497 Y114.3271
G1 F800.0 X338.7096 Y111.7878
G1 F1000.0 X333.5096 Y111.6652
G1 X333.515 Y444.2518
G3 X333.5139 Y444.3937 I-9.715 J0.0002
G1 X333.5143 Y467.0282
G3 X333.5139 Y467.1126 I-9.715 J0.0002
G1 Y467.1326
G3 X333.5137 Y467.1924 I-9.715 J0.0002
G1 X333.5139 Y478.5052
G3 X333.5123 Y478.6823 I-9.715 J0.0002
G1 X333.5137 Y547.0119
G3 X333.5105 Y547.2637 I-9.715 J0.0002
G1 X333.5123 Y615.5186
G3 X333.5094 Y615.7546 I-9.715 J0.0003
G1 X333.5102 Y639.8253
G1 X345.1351 Y639.5511
G1 X345.1347 Y275.8522
G3 X345.1351 Y275.7715 I9.715 J0.0
G1 X345.135 Y239.098
G3 X345.1351 Y239.0496 I9.715 J0.0
G1 Y111.9394
G1 X338.7096 Y111.7878
G1 F800.0 X338.7694 Y109.2485
G1 F1000.0 X330.9696 Y109.0646
G1 X330.975 Y444.2518
G3 X330.9739 Y444.3738 I-7.175 J0.0001
G1 X330.9743 Y467.0282
G3 X330.9739 Y467.1008 I-7.175 J0.0001
G1 Y467.1326
G3 X330.9737 Y467.184 I-7.175 J0.0001
G1 X330.9739 Y478.5052
G3 X330.9723 Y478.6575 I-7.175 J0.0001
G1 X330.9737 Y547.0119
G3 X330.9705 Y547.2283 I-7.175 J0.0002
G1 X330.9723 Y615.5187
G3 X330.9694 Y615.7215 I-7.175 J0.0002
G1 X330.9702 Y642.4259
G1 X347.6751 Y642.0319
G1 X347.6747 Y275.8522
G3 X347.6751 Y275.7828 I7.175 J0.0
G1 X347.675 Y239.098
G3 X347.6751 Y239.0564 I7.175 J0.0
G1 Y109.4586
G1 X338.7694 Y109.2485
G0 Z3.0
G0 X338.5898 Y116.8664
G0 Z-47.0
G1 F800.0 Z-50.8
G1 F1000.0 X338.5897
G1 X338.595 Y444.2517
G3 X338.5939 Y444.4268 I-14.795 J0.0002
G1 X338.5943 Y467.0281
G3 X338.5939 Y467.1323 I-14.795 J0.0002
G1 Y467.1325
G3 X338.5937 Y467.2063 I-14.795 J0.0002
G1 X338.5939 Y478.5051
G3 X338.5923 Y478.7237 I-14.795 J0.0002
G1 X338.5937 Y547.0118
G3 X338.5905 Y547.3225 I-14.795 J0.0003
G1 X338.5923 Y615.5185
G3 X338.5894 Y615.8097 I-14.795 J0.0004
G1 X338.59 Y634.6241
G1 X340.0551 Y634.5895
G1 X340.0547 Y275.8522
G3 X340.0551 Y275.7526 I14.795 J0.0
G1 X340.055 Y239.098
G3 X340.0551 Y239.0382 I14.795 J0.0
G1 Y116.901
G1 X338.5898 Y116.8664
G1 F800.0 X338.6497 Y114.3271
G1 F1000.0 X336.0496 Y114.2658
G1 X336.055 Y444.2517
G3 X336.0539 Y444.4111 I-12.255 J0.0002
G1 X336.0543 Y467.0282
G3 X336.0539 Y467.123 I-12.255 J0.0002
G1 Y467.1326
G3 X336.0537 Y467.1997 I-12.255 J0.0002
G1 X336.0539 Y478.5051
G3 X336.0523 Y478.7041 I-12.255 J0.0002
G1 X336.0537 Y547.0118
G3 X336.0505 Y547.2946 I-12.255 J0.0003
G1 X336.0523 Y615.5185
G3 X336.0494 Y615.7836 I-12.255 J0.0003
G1 X336.0501 Y637.2247
G1 X342.5951 Y637.0703
G1 X342.5947 Y275.8522
G3 X342.5951 Y275.7616 I12.255 J0.0
G1 X342.595 Y239.098
G3 X342.5951 Y239.0436 I12.255 J0.0
G1 Y114.4202
G1 X338.6497 Y114.3271
G1 F800.0 X338.7096 Y111.7878
G1 F1000.0 X333.5096 Y111.6652
G1 X333.515 Y444.2518
G3 X333.5139 Y444.3937 I-9.715 J0.0002
G1 X333.5143 Y467.0282
G3 X333.5139 Y467.1126 I-9.715 J0.0002
G1 Y467.1326
G3 X333.5137 Y467.1924 I-9.715 J0.0002
G1 X333.5139 Y478.5052
G3 X333.5123 Y478.6823 I-9.715 J0.0002
G1 X333.5137 Y547.0119
G3 X333.5105 Y547.2637 I-9.715 J0.0002
G1 X333.5123 Y615.5186
G3 X333.5094 Y615.7546 I-9.715 J0.0003
G1 X333.5102 Y639.8253
G1 X345.1351 Y639.5511
G1 X345.1347 Y275.8522
G3 X345.1351 Y275.7715 I9.715 J0.0
G1 X345.135 Y239.098
G3 X345.1351 Y239.0496 I9.715 J0.0
G1 Y111.9394
G1 X338.7096 Y111.7878
G1 F800.0 X338.7694 Y109.2485
G1 F1000.0 X330.9696 Y109.0646
G1 X330.975 Y444.2518
G3 X330.9739 Y444.3738 I-7.175 J0.0001
G1 X330.9743 Y467.0282
G3 X330.9739 Y467.1008 I-7.175 J0.0001
G1 Y467.1326
G3 X330.9737 Y467.184 I-7.175 J0.0001
G1 X330.9739 Y478.5052
G3 X330.9723 Y478.6575 I-7.175 J0.0001
G1 X330.9737 Y547.0119
G3 X330.9705 Y547.2283 I-7.175 J0.0002
G1 X330.9723 Y615.5187
G3 X330.9694 Y615.7215 I-7.175 J0.0002
G1 X330.9702 Y642.4259
G1 X347.6751 Y642.0319
G1 X347.6747 Y275.8522
G3 X347.6751 Y275.7828 I7.175 J0.0
G1 X347.675 Y239.098
G3 X347.6751 Y239.0564 I7.175 J0.0
G1 Y109.4586
G1 X338.7694 Y109.2485
G0 Z3.0
G0 X479.5886 Y157.7038
G0 Z1.0
G1 F800.0 Z-3.0
G1 F1000.0 Y228.95
G1 Y592.9121
G1 Y602.3
G2 X479.8931 Y602.3078 I182.6627 J-7130.485
G1 Y157.696
G1 X479.5886 Y157.7038
G1 F800.0 X477.0486
G1 F1000.0 Y228.95
G1 Y592.9121
G1 Y604.7753
G2 X482.4331 Y604.9131 I185.2027 J-7132.9604
G1 Y155.0908
G2 X477.0486 Y155.2282 I225.3152 J8929.8472
G1 Y157.7038
G1 F800.0 X474.5086
G1 F1000.0 Y228.95
G1 Y592.9121
G1 Y607.2498
G2 X484.9731 Y607.5175 I187.7427 J-7135.4348
G1 Y152.4862
G2 X474.5086 Y152.7534 I222.7752 J8932.4517
G1 Y157.7038
G1 F800.0 X471.9686
G1 F1000.0 Y228.95
G1 Y592.9121
G1 Y609.7234
G2 X487.5131 Y610.1209 I190.2827 J-7137.9085
G1 Y149.8825
G2 X471.9686 Y150.2792 I220.2352 J8935.0555
G1 Y157.7038
G1 F800.0 X469.4286
G1 F1000.0 Y228.95
G1 Y592.9121
G1 Y612.1962
G2 X490.0531 Y612.7233 I192.8227 J-7140.3812
G1 Y147.2795
G2 X469.4286 Y147.8056 I217.6952 J8937.6585
G1 Y157.7038
G1 F800.0 X466.8886
G1 F1000.0 Y228.95
G1 Y592.9121
G1 Y614.6681
G2 X492.5931 Y615.3248 I195.3627 J-7142.8531
G1 Y144.6772
G2 X466.8886 Y145.3328 I215.1552 J8940.2607
G1 Y157.7038
G1 F800.0 X464.3486
G1 F1000.0 Y228.95
G1 Y592.9121
G1 Y617.1391
G2 X495.1331 Y617.9254 I197.9027 J-7145.3242
G1 Y142.0758
G2 X464.3486 Y142.8607 I212.6152 J8942.8622
G1 Y157.7038
G1 F800.0 X461.8086
G1 F1000.0 Y228.95
G1 Y592.9121
G1 Y619.6093
G2 X497.6731 Y620.525 I200.4427 J-7147.7944
G1 Y139.475
G2 X461.8086 Y140.3892 I210.0752 J8945.4629
G1 Y157.7038
G1 F800.0 X459.2686
G1 F1000.0 Y228.95
G1 Y592.9121
G1 Y622.0787
G2 X500.2131 Y623.1237 I202.9827 J-7150.2637
G1 Y136.8751
G2 X459.2686 Y137.9184 I207.5352 J8948.0629
G1 Y157.7038
G1 F800.0 X456.7286
G1 F1000.0 Y228.95
G1 Y592.9121
G1 Y624.5472
G2 X502.7531 Y625.7214 I205.5227 J-7152.7322
G1 Y134.2758
G2 X456.7286 Y135.4483 I204.9952 J8950.6621
G1 Y157.7038
G1 F800.0 X454.1886
G1 F1000.0 Y228.95
G1 Y592.9121
G1 Y627.0148
G2 X505.2931 Y628.3182 I208.0627 J-7155.1999
G1 Y131.6774
G2 X454.1886 Y132.9789 I202.4552 J8953.2606
G1 Y157.7038
G1 F800.0 X451.6486
G1 F1000.0 Y228.95
G1 Y592.9121
G1 Y629.4816
G2 X507.8331 Y630.9141 I210.6027 J-7157.6666
G1 Y129.0797
G2 X451.6486 Y130.5102 I199.9152 J8955.8583
G1 Y157.7038
G1 F800.0 X449.1086
G1 F1000.0 Y228.95
G1 Y592.9121
G1 Y631.0966
G3 X450.1544 Y631.9786 I-43.4011 J52.5235
G2 X510.3731 Y633.509 I212.0969 J-7160.1636
G1 Y126.4827
G2 X449.1086 Y128.0421 I197.3752 J8958.4552
G1 Y157.7038
G1 F800.0 X446.5686
G1 F1000.0 Y228.95
G1 Y592.9121
G1 Y632.3067
G3 X449.1699 Y634.4905 I-40.8611 J51.3135
G2 X512.9131 Y636.103 I213.0814 J-7162.6755
G1 Y123.8865
G2 X446.5686 Y125.5748 I194.8352 J8961.0514
G1 Y157.7038
G1 F800.0 X444.0286
G1 F1000.0 Y228.95
G1 Y592.9121
G1 Y633.5459
G3 X448.1651 Y637.0017 I-38.3211 J50.0742
G2 X515.4531 Y638.696 I214.0862 J-7165.1867
G1 Y121.2911
G2 X444.0286 Y123.1081 I192.2952 J8963.6469
G1 Y157.7038
G1 F800.0 X441.4886
G1 F1000.0 Y228.95
G1 Y592.9121
G1 Y634.8167
G3 X447.1387 Y639.5121 I-35.7811 J48.8035
G2 X517.9931 Y641.2881 I215.1126 J-7167.6971
G1 Y118.6964
G2 X441.4886 Y120.642 I189.7552 J8966.2416
G1 Y157.7038
G1 F800.0 X438.9486
G1 F1000.0 Y228.95
G1 Y592.9121
G1 Y636.1214
G3 X446.089 Y642.0216 I-33.2411 J47.4987
G2 X520.5331 Y643.8792 I216.1623 J-7170.2067
G1 Y116.1024
G2 X438.9486 Y118.1767 I187.2152 J8968.8355
G1 Y157.7038
G1 F800.0 X436.4086
G1 F1000.0 Y228.95
G1 Y592.9121
G1 Y637.463
G3 X445.0143 Y644.5303 I-30.7011 J46.1571
G2 X523.0731 Y646.4694 I217.237 J-7172.7154
G1 Y113.5092
G2 X437.0444 Y115.6928 I184.6752 J8971.4287
G3 X436.4086 Y116.096 I-30.007 J-46.6113
G1 Y157.7038
G1 F800.0 X433.8686
G1 F1000.0 Y228.95
G1 Y592.9121
G1 Y638.8448
G3 X443.9126 Y647.0381 I-28.1611 J44.7754
G2 X525.6131 Y649.0587 I218.3387 J-7175.2231
G1 Y110.9168
G2 X436.2537 Y113.1756 I182.1352 J8974.0212
G3 X433.8686 Y114.6662 I-29.2163 J-44.0941
G1 Y157.7038
G1 F800.0 X431.3286
G1 F1000.0 Y228.95
G1 Y592.9121
G1 Y640.2706
G3 X442.7817 Y649.5447 I-25.6211 J43.3496
G2 X528.1531 Y651.6471 I219.4696 J-7177.7298
G1 Y108.3251
G2 X435.4441 Y110.6589 I179.5952 J8976.6129
G3 X431.3286 Y113.19 I-28.4067 J-41.5774
G1 Y157.7038
G1 F800.0 X428.7886
G1 F1000.0 Y228.95
G1 Y592.9121
G1 Y641.7449
G3 X441.6188 Y652.0503 I-23.0811 J41.8753
G2 X530.6931 Y654.2345 I220.6325 J-7180.2353
G1 Y105.7341
G2 X434.6141 Y108.143 I177.0552 J8979.2038
G3 X428.7886 Y111.6627 I-27.5767 J-39.0615
G1 Y157.7038
G1 F800.0 X426.2486
G1 F1000.0 Y228.95
G1 Y592.9121
G1 Y643.2731
G3 X440.4209 Y654.5546 I-20.5411 J40.3471
G2 X533.2331 Y656.821 I221.8304 J-7182.7396
G1 Y103.1439
G2 X433.7618 Y105.6278 I174.5152 J8981.794
G3 X426.2486 Y110.0785 I-26.7244 J-36.5463
G1 Y157.7038
G1 F800.0 X423.7086
G1 F1000.0 Y228.95
G1 Y592.9121
G1 Y644.8614
G3 X439.1845 Y657.0575 I-18.0011 J38.7588
G2 X535.7731 Y659.4065 I223.0668 J-7185.2426
G1 Y100.5545
G2 X432.8852 Y103.1134 I171.9752 J8984.3835
G3 X423.7086 Y108.4306 I-25.8478 J-34.0319
G1 Y157.7038
G1 F800.0 X421.1686
G1 F1000.0 Y228.95
G1 Y592.9121
G1 Y646.5177
G3 X437.9053 Y659.5589 I-15.4611 J37.1025
G2 X538.3131 Y661.9912 I224.346 J-7187.744
G1 Y97.9657
G2 X431.9819 Y100.5999 I169.4352 J8986.9722
G3 X421.1686 Y106.7105 I-24.9445 J-31.5184
G1 Y157.7038
G1 F800.0 X418.6286
G1 F1000.0 Y228.95
G1 Y592.9121
G1 Y648.2515
G3 X436.5782 Y662.0586 I-12.9211 J35.3687
G2 X539.8786 Y664.5583 I225.6731 J-7190.2437
G2 X540.8531 Y664.5602 I3.9321 J-1857.6426
G1 Y95.394
G2 X539.8961 Y95.3956 I2.7659 J1902.5964
G2 X431.049 Y98.0873 I167.8522 J8989.5424
G3 X418.6286 Y104.908 I-24.0116 J-29.0059
G1 Y157.7038
G1 F800.0 X416.0886
G1 F1000.0 Y228.95
G1 Y592.9121
G1 Y650.0747
G3 X435.1971 Y664.5564 I-10.3811 J33.5454
G2 X539.8543 Y667.0983 I227.0542 J-7192.7415
G2 X543.3931 Y667.1025 I3.9564 J-1860.1825
G1 Y92.852
G2 X539.8699 Y92.8556 I0.2259 J1905.1384
G2 X430.0831 Y95.5759 I167.8784 J8992.0823
G3 X416.0886 Y103.0099 I-23.0458 J-26.4944
G1 Y157.7038
G1 F800.0 X413.5486
G1 F1000.0 Y228.95
G1 Y592.9121
G1 Y652.003
G3 X433.7544 Y667.052 I-7.8411 J31.6172
G2 X539.83 Y669.6383 I228.4969 J-7195.2371
G2 X545.9331 Y669.6413 I3.9807 J-1862.7225
G1 Y90.3134
G2 X539.8437 Y90.3157 I-2.3141 J1907.677
G2 X429.0802 Y93.0657 I167.9046 J8994.6223
G3 X413.5486 Y100.9991 I-22.0428 J-23.9843
G1 Y157.7038
G1 F800.0 X411.0086
G1 F1000.0 Y228.95
G1 Y592.9121
G1 Y654.0567
G3 X432.2404 Y669.5451 I-5.3011 J29.5635
G2 X539.8056 Y672.1782 I230.0109 J-7197.7301
G2 X548.4731 Y672.1767 I4.005 J-1865.2625
G1 Y87.7781
G2 X539.8175 Y87.7757 I-4.8541 J1910.2123
G2 X428.0351 Y90.557 I167.9308 J8997.1622
G3 X411.0086 Y98.8528 I-20.9977 J-21.4755
G1 Y157.7038
G1 F800.0 X408.4686
G1 F1000.0 Y228.95
G1 Y592.9121
G1 Y656.2641
G3 X430.6427 Y672.0352 I-2.7611 J27.356
G2 X539.7813 Y674.7182 I231.6086 J-7200.2202
G2 X551.0131 Y674.7086 I4.0293 J-1867.8024
G1 Y85.2462
G2 X539.7912 Y85.2358 I-7.3941 J1912.7442
G2 X426.9416 Y88.0498 I167.9571 J8999.7022
G3 X408.4686 Y96.5392 I-19.9042 J-18.9683
G1 Y157.7038
G1 F800.0 X405.9286
G1 F1000.0 Y228.95
G1 Y592.9121
G1 Y658.6661
G3 X428.9448 Y674.5217 I-0.2211 J24.954
G2 X539.757 Y677.2581 I233.3065 J-7202.7067
G2 X553.5531 Y677.2371 I4.0537 J-1870.3424
G1 Y82.7177
G2 X539.765 Y82.6958 I-9.9341 J1915.2727
G2 X426.7411 Y85.5148 I167.9833 J9002.2421
G1 X426.7407
G1 X425.7916 Y85.5445
G3 X405.9286 Y94.0118 I-18.7542 J-16.463
G1 Y157.7038
G1 F800.0 X403.3886
G1 F1000.0 Y228.95
G1 Y592.9121
G1 Y661.3254
G3 X427.1238 Y677.0038 I2.3189 J22.2947
G2 X539.7326 Y679.7981 I235.1275 J-7205.1888
G2 X556.0931 Y679.7622 I4.078 J-1872.8823
G1 Y80.1925
G2 X539.7387 Y80.1559 I-12.4741 J1917.7979
G2 X426.6618 Y82.9761 I168.0096 J9004.7821
G1 X426.6614
G1 X424.5746 Y83.0413
G3 X403.3886 Y91.1975 I-17.5372 J-13.9599
G1 Y157.7038
G1 F800.0 X400.8486
G1 F1000.0 Y228.95
G1 Y592.9121
G1 Y664.3482
G3 X425.1466 Y679.4804 I4.8589 J19.2719
G2 X539.7083 Y682.338 I237.1047 J-7207.6654
G2 X558.6331 Y682.2839 I4.1024 J-1875.4223
G1 Y77.6706
G2 X539.7124 Y77.6159 I-15.0141 J1920.3198
G2 X426.5825 Y80.4373 I168.0359 J9007.322
G1 X426.5822
G1 X423.2762 Y80.5409
G3 X400.8486 Y87.9684 I-16.2388 J-11.4594
G1 Y157.7038
G1 F800.0 X398.3086
G1 F1000.0 Y228.95
G1 Y592.9121
G1 Y667.2393
G1 Y667.3234
G3 X398.2973 Y667.9488 I-17.3299 J0.0
G3 X422.9618 Y681.9496 I7.4102 J15.6714
G2 X539.6839 Y684.878 I239.2895 J-7210.1346
G2 X561.1731 Y684.8022 I4.1267 J-1877.9622
G1 Y75.1521
G2 X539.6862 Y75.076 I-17.5541 J1922.8383
G2 X426.5032 Y77.8985 I168.0621 J9009.862
G1 X426.503
G1 X421.8759 Y78.0437
G3 X398.3083 Y84.0583 I-14.8385 J-8.9622
G3 X398.3086 Y84.167 I-17.3296 J0.1087
G1 Y157.7038
G1 F800.0 X395.7686
G1 F1000.0 Y228.95
G1 Y592.9121
G1 Y667.2393
G1 Y667.3234
G3 X394.9954 Y672.043 I-14.7899 J0.0
G1 X396.5667 Y671.9867
G3 X420.5025 Y683.6202 I9.1408 J11.6335
G1 Y684.409
G2 X539.6595 Y687.4179 I241.7488 J-7212.594
G2 X563.7131 Y687.3172 I4.1511 J-1880.5022
G1 Y72.6368
G2 X539.6599 Y72.536 I-20.0941 J1925.3536
G2 X426.424 Y75.3598 I168.0884 J9012.4019
G1 X426.4237
G1 X420.343 Y75.5508
G3 X396.5354 Y79.5027 I-13.3056 J-6.4693
G1 X394.9954 Y79.4475
G3 X395.7686 Y84.167 I-14.0167 J4.7196
G1 Y157.7038
G1 F800.0 X393.2286
G1 F1000.0 Y228.95
G1 Y592.9121
G1 Y667.2393
G1 Y667.3234
G3 X390.7302 Y674.7375 I-12.2499 J0.0
G1 X396.8039 Y674.5198
G2 X398.0397 Y674.0604 I-0.0751 J-2.0937
G3 X417.9625 Y683.6202 I7.6679 J9.5598
G1 Y684.8393
G2 X419.9872 Y686.9331 I2.095 J0.0
G2 X539.6197 Y689.9576 I242.2641 J-7215.1182
G2 X539.6506 Y689.9579 I0.0356 J-2.0947
G2 X564.1807 Y689.8523 I4.16 J-1883.0422
G2 X566.2531 Y687.7574 I-0.0227 J-2.0949
G1 Y72.1965
G2 X564.1804 Y70.1016 I-2.095 J0.0
G2 X539.651 Y69.996 I-20.5615 J1927.8888
G2 X539.6162 Y69.9964 I0.0043 J2.095
G2 X426.3447 Y72.821 I168.1321 J9014.9416
G1 X426.3445
G1 X419.9912 Y73.0207
G2 X418.1566 Y74.2338 I0.0663 J2.094
G3 X398.2338 Y77.6069 I-11.1193 J-5.1523
G2 X396.8039 Y76.9707 I-1.505 J1.4574
G1 X390.7302 Y76.7529
G3 X393.2286 Y84.167 I-9.7515 J7.4141
G1 Y157.7038
G0 Z3.0
G0 X170.5374 Y206.4441
G0 Z1.0
G1 F800.0 Z-3.0
G2 F1000.0 X168.8123 Y206.4104 I-188.1533 J9596.6009
G1 Y537.0777
G3 X170.5374 Y537.8296 I-57.3138 J133.8504
G1 Y370.1876
G1 Y206.4441
G1 F800.0 X170.5623 Y205.1743
G2 F1000.0 X167.5423 Y205.1156 I-188.1782 J9597.8707
G1 Y537.9181
G3 X171.8074 Y539.7968 I-56.0438 J133.0101
G1 Y370.1876
G1 Y205.1988
G2 X170.5623 Y205.1743 I-189.4233 J9597.8462
G1 F800.0 X170.6121 Y202.6348
G2 F1000.0 X165.0023 Y202.5265 I-188.228 J9600.4102
G1 Y539.6149
G3 X174.3474 Y543.8225 I-53.5038 J131.3132
G1 Y370.1876
G1 Y202.7088
G2 X170.6121 Y202.6348 I-191.9633 J9600.3363
G1 F800.0 X170.6619 Y200.0953
G2 F1000.0 X162.4623 Y199.938 I-188.2778 J9602.9497
G1 Y541.334
G3 X176.8874 Y547.98 I-50.9638 J129.5941
G1 Y370.1876
G1 Y200.2194
G2 X170.6619 Y200.0953 I-194.5033 J9602.8257
G1 F800.0 X170.7117 Y197.5558
G2 F1000.0 X159.9223 Y197.3503 I-188.3276 J9605.4892
G1 Y543.0762
G3 X179.4274 Y552.2831 I-48.4238 J127.852
G1 Y370.1876
G1 Y197.7306
G2 X170.7117 Y197.5558 I-197.0433 J9605.3144
G1 F800.0 X170.7614 Y195.0163
G2 F1000.0 X158.6897 Y194.7872 I-188.3774 J9608.0288
G3 X157.3823 Y195.2524 I-45.6324 J-126.1769
G1 Y544.8425
G3 X181.9674 Y556.7482 I-45.8838 J126.0857
G1 Y370.1876
G1 Y195.2425
G2 X170.7614 Y195.0163 I-199.5833 J9607.8025
G1 F800.0 X170.8112 Y192.4768
G2 F1000.0 X158.2648 Y192.239 I-188.4272 J9610.5683
G3 X154.8423 Y193.4373 I-45.2075 J-123.6287
G1 Y546.6338
G3 X184.5074 Y561.3952 I-43.3438 J124.2944
G1 Y370.1876
G1 Y192.755
G2 X170.8112 Y192.4768 I-202.1233 J9610.29
G1 F800.0 X170.861 Y189.9372
G2 F1000.0 X157.8351 Y189.6907 I-188.4769 J9613.1078
G3 X152.3023 Y191.5954 I-44.7778 J-121.0804
G1 Y548.4514
G3 X187.0474 Y566.2483 I-40.8038 J122.4768
G1 Y370.1876
G1 Y190.2682
G2 X170.861 Y189.9372 I-204.6633 J9612.7768
G1 F800.0 X170.9108 Y187.3977
G2 F1000.0 X157.4004 Y187.1423 I-188.5267 J9615.6473
G3 X149.7623 Y189.7255 I-44.3432 J-118.5321
G1 Y550.2963
G3 X189.5874 Y571.3375 I-38.2638 J120.6319
G1 Y370.1876
G1 Y187.7821
G2 X170.9108 Y187.3977 I-207.2033 J9615.263
G1 F800.0 X170.9606 Y184.8582
G2 F1000.0 X156.9607 Y184.5939 I-188.5765 J9618.1868
G3 X147.2223 Y187.8263 I-43.9034 J-115.9837
G1 Y552.1699
G3 X192.1274 Y576.7013 I-35.7238 J118.7583
G1 Y370.1876
G1 Y185.2965
G2 X170.9606 Y184.8582 I-209.7433 J9617.7485
G1 F800.0 X171.0104 Y182.3187
G2 F1000.0 X156.5157 Y182.0454 I-188.6263 J9620.7263
G3 X144.6823 Y185.8964 I-43.4584 J-113.4352
G1 Y554.0735
G3 X194.6674 Y582.3894 I-33.1838 J116.8547
G1 Y370.1876
G1 Y182.8116
G2 X171.0104 Y182.3187 I-212.2833 J9620.2334
G1 F800.0 X171.0602 Y179.7792
G2 F1000.0 X156.0653 Y179.4969 I-188.6761 J9623.2658
G3 X142.1423 Y183.9341 I-43.008 J-110.8866
G1 Y556.0087
G3 X194.3241 Y585.5733 I-30.6438 J114.9195
G2 X197.2074 Y585.5097 I-166.9179 J-7630.204
G1 Y370.1876
G1 Y180.3274
G2 X171.0602 Y179.7792 I-214.8233 J9622.7176
G1 F800.0 X171.11 Y177.2397
G2 F1000.0 X155.6093 Y176.9483 I-188.7259 J9625.8053
G3 X139.6023 Y181.9379 I-42.552 J-108.338
G1 Y557.977
G3 X193.3108 Y588.136 I-28.1038 J112.9512
G2 X199.7474 Y587.9934 I-165.9046 J-7632.7667
G1 Y370.1876
G1 Y177.8438
G2 X171.11 Y177.2397 I-217.3633 J9625.2012
G1 F800.0 X171.1598 Y174.7002
G2 F1000.0 X155.1475 Y174.3995 I-188.7757 J9628.3448
G3 X137.0623 Y179.9059 I-42.0902 J-105.7893
G1 Y559.9802
G3 X192.2835 Y590.6989 I-25.5638 J110.948
G2 X202.2874 Y590.4763 I-164.8773 J-7635.3296
G1 Y370.1876
G1 Y175.3608
G2 X171.1598 Y174.7002 I-219.9033 J9627.6842
G1 F800.0 X171.2096 Y172.1607
G2 F1000.0 X154.6797 Y171.8508 I-188.8255 J9630.8844
G3 X134.5223 Y177.8361 I-41.6225 J-103.2405
G1 Y562.0203
G3 X191.2417 Y593.2619 I-23.0238 J108.9079
G2 X204.8274 Y592.9584 I-163.8355 J-7637.8926
G1 Y370.1876
G1 Y172.8785
G2 X171.2096 Y172.1607 I-222.4433 J9630.1665
G1 F800.0 X171.2593 Y169.6211
G2 F1000.0 X154.2057 Y169.3019 I-188.8753 J9633.4239
G3 X131.9823 Y175.7263 I-41.1485 J-100.6916
G1 Y564.0993
G3 X190.1847 Y595.825 I-20.4838 J106.8289
G2 X207.3674 Y595.4396 I-162.7785 J-7640.4558
G1 Y370.1876
G1 Y170.3968
G2 X171.2593 Y169.6211 I-224.9833 J9632.6482
G1 F800.0 X171.3091 Y167.0816
G2 F1000.0 X153.7253 Y166.7529 I-188.9251 J9635.9634
G3 X129.4423 Y173.5741 I-40.6681 J-98.1427
G1 Y566.2195
G3 X189.112 Y598.3884 I-17.9438 J104.7086
G2 X209.9074 Y597.9201 I-161.7058 J-7643.0191
G1 Y370.1876
G1 Y167.9157
G2 X171.3091 Y167.0816 I-227.5233 J9635.1293
G1 F800.0 X171.3589 Y164.5421
G2 F1000.0 X153.2383 Y164.2039 I-188.9748 J9638.5029
G3 X126.9023 Y171.3768 I-40.181 J-95.5936
G1 Y568.3837
G3 X188.0228 Y600.9519 I-15.4038 J102.5445
G2 X212.4474 Y600.3998 I-160.6167 J-7645.5826
G1 Y370.1876
G1 Y165.4353
G2 X171.3589 Y164.5421 I-230.0633 J9637.6097
G1 F800.0 X171.4087 Y162.0026
G2 F1000.0 X152.7443 Y161.6547 I-189.0246 J9641.0424
G3 X124.3623 Y169.1316 I-39.687 J-93.0445
G1 Y570.5944
G3 X186.9166 Y603.5156 I-12.8638 J100.3337
G2 X214.9874 Y602.8786 I-159.5104 J-7648.1464
G1 Y370.1876
G1 Y162.9556
G2 X171.4087 Y162.0026 I-232.6033 J9640.0895
G1 F800.0 X171.4585 Y159.4631
G2 F1000.0 X152.2431 Y159.1055 I-189.0744 J9643.5819
G3 X121.8223 Y166.835 I-39.1858 J-90.4952
G1 Y572.855
G3 X185.7923 Y606.0795 I-10.3238 J98.0731
G2 X217.5274 Y605.3567 I-158.3861 J-7650.7103
G1 Y370.1876
G1 Y160.4764
G2 X171.4585 Y159.4631 I-235.1433 J9642.5686
G1 F800.0 X171.5083 Y156.9236
G2 F1000.0 X151.7344 Y156.5562 I-189.1242 J9646.1214
G3 X119.2823 Y164.4834 I-38.6772 J-87.9459
G1 Y575.169
G3 X184.6493 Y608.6437 I-7.7838 J95.7592
G2 X220.0674 Y607.834 I-157.2431 J-7653.2744
G1 Y370.1876
G1 Y157.9979
G2 X171.5083 Y156.9236 I-237.6833 J9645.0471
G1 F800.0 X171.5581 Y154.3841
G2 F1000.0 X151.218 Y154.0067 I-189.174 J9648.6609
G3 X116.7423 Y162.0726 I-38.1607 J-85.3965
G1 Y577.5403
G3 X183.4867 Y611.208 I-5.2438 J93.3879
G2 X222.6074 Y610.3104 I-156.0805 J-7655.8387
G1 Y370.1876
G1 Y155.5201
G2 X171.5581 Y154.3841 I-240.2233 J9647.5249
G1 F800.0 X171.6079 Y151.8446
G2 F1000.0 X150.6934 Y151.4572 I-189.2238 J9651.2005
G3 X114.2023 Y159.5981 I-37.6361 J-82.8469
G1 Y579.9733
G3 X182.3033 Y613.7725 I-2.7038 J90.9548
G2 X225.1474 Y612.7861 I-154.8971 J-7658.4033
G1 Y370.1876
G1 Y153.0428
G2 X171.6079 Y151.8446 I-242.7633 J9650.0022
G1 F800.0 X171.6577 Y149.3051
G2 F1000.0 X150.1603 Y148.9075 I-189.2736 J9653.74
G3 X111.6623 Y157.0543 I-37.1031 J-80.2972
G1 Y582.4733
G3 X181.0983 Y616.3373 I-0.1638 J88.4548
G2 X227.6874 Y615.2609 I-153.6921 J-7660.9681
G1 Y370.1876
G1 Y150.5663
G2 X171.6577 Y149.3051 I-245.3033 J9652.4788
G1 F800.0 X171.7075 Y146.7655
G2 F1000.0 X149.6184 Y146.3577 I-189.3234 J9656.2795
G3 X109.1223 Y154.4351 I-36.5612 J-77.7475
G1 Y585.046
G3 X179.8703 Y618.9024 I2.3762 J85.8821
G2 X230.2274 Y617.735 I-152.4641 J-7663.5331
G1 Y370.1876
G1 Y148.0903
G2 X171.7075 Y146.7655 I-247.8433 J9654.9547
G1 F800.0 X171.7572 Y144.226
G2 F1000.0 X149.0672 Y143.8078 I-189.3732 J9658.819
G3 X106.5823 Y151.7335 I-36.01 J-75.1976
G1 Y587.6982
G3 X178.6182 Y621.4677 I4.9162 J83.2299
G2 X232.7674 Y620.2082 I-151.212 J-7666.0984
G1 Y370.1876
G1 Y145.615
G2 X171.7572 Y144.226 I-250.3833 J9657.43
G1 F800.0 X171.807 Y141.6865
G2 F1000.0 X148.5063 Y141.2578 I-189.423 J9661.3585
G3 X104.0423 Y148.941 I-35.4491 J-72.6475
G1 Y590.4378
G3 X177.3405 Y624.0332 I7.4562 J80.4904
G2 X235.3074 Y622.6807 I-149.9343 J-7668.664
G1 Y370.1876
G1 Y143.1403
G2 X171.807 Y141.6865 I-252.9233 J9659.9047
G1 F800.0 X171.8568 Y139.147
G2 F1000.0 X147.9352 Y138.7076 I-189.4728 J9663.898
G3 X101.5023 Y146.0479 I-34.8779 J-70.0973
G1 Y593.2739
G3 X176.0356 Y626.5991 I9.9962 J77.6543
G2 X237.8474 Y625.1524 I-148.6294 J-7671.2299
G1 Y370.1876
G1 Y140.6663
G2 X171.8568 Y139.147 I-255.4633 J9662.3788
G1 F800.0 X171.9066 Y136.6075
G2 F1000.0 X147.3533 Y136.1573 I-189.5225 J9666.4375
G3 X98.9623 Y143.0425 I-34.2961 J-67.547
G1 Y596.2176
G3 X174.702 Y629.1653 I12.5362 J74.7105
G2 X240.3874 Y627.6232 I-147.2958 J-7673.796
G1 Y370.1876
G1 Y138.1928
G2 X171.9066 Y136.6075 I-258.0033 J9664.8522
G1 F800.0 X171.9564 Y134.068
G2 F1000.0 X146.7601 Y133.6068 I-189.5723 J9668.977
G3 X96.4223 Y139.9104 I-33.7029 J-64.9965
G1 Y599.2822
G3 X173.3377 Y631.7318 I15.0762 J71.646
G2 X242.6567 Y630.1009 I-145.9315 J-7676.3626
G3 X242.9274 Y629.9163 I41.3775 J60.4015
G1 Y370.1876
G1 Y135.7201
G2 X171.9564 Y134.068 I-260.5433 J9667.325
G1 F800.0 X172.0062 Y131.5285
G2 F1000.0 X146.155 Y131.0562 I-189.6221 J9671.5166
G3 X93.8823 Y136.6344 I-33.0978 J-62.4459
G1 Y602.4838
G3 X171.9405 Y634.2987 I17.6162 J68.4443
G2 X243.4825 Y632.6187 I-144.5343 J-7678.9295
G3 X245.4674 Y631.2777 I40.5516 J57.8837
G1 Y370.1876
G1 Y133.2479
G2 X172.0062 Y131.5285 I-263.0833 J9669.7971
G1 F800.0 X172.056 Y128.989
G2 F1000.0 X145.5373 Y128.5054 I-189.6719 J9674.0561
G3 X91.3423 Y133.1923 I-32.48 J-59.8951
G1 Y605.8428
G3 X170.5082 Y636.866 I20.1562 J65.0854
G2 X244.3234 Y635.136 I-143.102 J-7681.4967
G3 X248.0074 Y632.6712 I39.7107 J55.3664
G1 Y370.1876
G1 Y130.7764
G2 X172.056 Y128.989 I-265.6233 J9672.2686
G1 F800.0 X172.1058 Y126.4494
G2 F1000.0 X144.9062 Y125.9544 I-189.7217 J9676.5956
G3 X88.8023 Y129.5562 I-31.8489 J-57.3441
G1 Y609.3848
G3 X169.038 Y639.4337 I22.6962 J61.5434
G2 X245.1803 Y637.6528 I-141.6319 J-7684.0644
G3 X250.5474 Y634.099 I38.8538 J52.8496
G1 Y370.1876
G1 Y128.3055
G2 X172.1058 Y126.4494 I-268.1633 J9674.7395
G1 F800.0 X172.1556 Y123.9099
G2 F1000.0 X144.2608 Y123.4032 I-189.7715 J9679.1351
G3 X86.2623 Y125.6888 I-31.2036 J-54.793
G1 Y612.2381
G1 X88.6668 Y612.1519
G3 X167.527 Y642.0018 I22.8317 J58.7762
G2 X246.0541 Y640.169 I-140.1208 J-7686.6325
G3 X253.0874 Y635.564 I37.98 J50.3334
G1 Y370.1876
G1 Y125.8352
G2 X172.1556 Y123.9099 I-270.7033 J9677.2098
G1 F800.0 X172.2054 Y121.3704
G2 F1000.0 X143.6004 Y120.8519 I-189.8213 J9681.6746
G3 X86.6717 Y123.07 I-30.5431 J-52.2416
G1 X83.7223 Y122.9643
G1 Y614.8708
G1 X89.1911 Y614.6748
G3 X165.9717 Y644.5704 I22.3074 J56.2534
G2 X246.9461 Y642.6846 I-138.5655 J-7689.2011
G3 X255.6274 Y637.0691 I37.088 J47.8178
G1 Y370.1876
G1 Y123.3655
G1 X253.951 Y123.3184
G1 X253.9498
G2 X172.2054 Y121.3704 I-271.5657 J9679.7266
G1 F800.0 X172.2552 Y118.8309
G2 F1000.0 X143.204 Y118.3049 I-189.8711 J9684.2141
G1 X142.917 Y118.3043
G3 X87.3035 Y120.5511 I-29.8597 J-49.694
G1 X81.1823 Y120.3316
G1 Y617.5035
G1 X89.7249 Y617.1973
G3 X164.3682 Y647.1395 I21.7736 J53.7309
G2 X247.8574 Y645.1995 I-136.962 J-7691.7703
G3 X258.1674 Y638.6178 I36.1767 J45.3029
G1 Y370.1876
G1 Y120.8962
G1 X254.0221 Y120.7794
G1 X254.021
G2 X172.2552 Y118.8309 I-271.6369 J9682.2656
G1 F800.0 X172.3049 Y116.2914
G2 F1000.0 X143.2278 Y115.765 I-189.9209 J9686.7536
G1 X142.2065 Y115.7628
G3 X87.9479 Y118.0325 I-29.1493 J-47.1525
G1 X78.6423 Y117.6989
G1 Y620.1362
G1 X90.2688 Y619.7194
G3 X162.7117 Y649.7092 I21.2297 J51.2088
G2 X248.7896 Y647.7138 I-135.3055 J-7694.34
G3 X260.7074 Y640.2142 I35.2445 J42.7886
G1 Y370.1876
G1 Y118.51
G2 X259.0409 Y118.38 I-157.1089 J2002.5592
G1 X254.0933 Y118.2404
G1 X254.0922
G2 X172.3049 Y116.2914 I-271.7082 J9684.8046
G1 F800.0 X172.3547 Y113.7519
G2 F1000.0 X143.2516 Y113.225 I-189.9707 J9689.2931
G1 X141.4781 Y113.2212
G3 X88.6058 Y115.5145 I-28.4209 J-44.6109
G1 X76.1023 Y115.0662
G1 Y622.7689
G1 X90.8235 Y622.2411
G3 X160.9971 Y652.2796 I20.6749 J48.687
G2 X249.7442 Y650.2273 I-133.5909 J-7696.9103
G3 X263.2474 Y641.863 I34.2899 J40.2751
G1 Y370.1876
G1 Y116.4105
G3 X261.9298 Y116.0584 I12.9958 J-51.2737
G2 X259.1753 Y115.8428 I-158.3314 J2005.0108
G1 X254.1645 Y115.7014
G1 X254.1635
G2 X172.3547 Y113.7519 I-271.7794 J9687.3436
G1 F800.0 X172.4045 Y111.2124
G2 F1000.0 X143.2754 Y110.685 I-190.0204 J9691.8326
G1 X140.7303 Y110.6796
G3 X89.2781 Y112.997 I-27.6731 J-42.0693
G1 X73.5623 Y112.4335
G1 Y625.4016
G1 X91.39 Y624.7625
G3 X159.2179 Y654.8506 I20.1085 J46.1657
G2 X250.723 Y652.7401 I-131.8117 J-7699.4814
G3 X265.7874 Y643.5697 I33.3111 J37.7623
G1 Y370.1876
G1 Y114.3943
G3 X262.3809 Y113.5461 I10.4558 J-49.2575
G2 X259.3096 Y113.3056 I-158.7824 J2007.5231
G1 X254.2357 Y113.1624
G1 X254.2347
G2 X172.4045 Y111.2124 I-271.8506 J9689.8826
G1 F800.0 X172.4543 Y108.6729
G2 F1000.0 X143.2992 Y108.1451 I-190.0702 J9694.3722
G1 X139.9615 Y108.1379
G3 X89.9661 Y110.48 I-26.9042 J-39.5277
G1 X71.0223 Y109.8009
G1 Y628.0343
G1 X91.969 Y627.2833
G3 X157.3665 Y657.4225 I19.5295 J43.6448
G2 X251.7281 Y655.2519 I-129.9603 J-7702.0532
G3 X268.3274 Y645.3408 I32.306 J35.2505
G1 Y370.1876
G1 Y112.292
G3 X262.8386 Y111.0344 I7.9158 J-47.1552
G2 X259.4439 Y110.7684 I-159.2401 J2010.0348
G1 X254.3069 Y110.6234
G1 X254.3059
G2 X172.4543 Y108.6729 I-271.9219 J9692.4216
G1 F800.0 X172.5041 Y106.1333
G2 F1000.0 X143.323 Y105.6051 I-190.12 J9696.9117
G1 X139.1698 Y105.5962
G3 X90.6711 Y107.9636 I-26.1125 J-36.986
G1 X68.4823 Y107.1682
G1 Y630.6669
G1 X92.5616 Y629.8037
G3 X155.4336 Y659.9952 I18.9369 J41.1245
G2 X252.762 Y657.7628 I-128.0274 J-7704.6259
G3 X270.8674 Y647.1842 I31.2721 J32.7396
G1 Y370.1876
G1 Y110.0915
G3 X263.3034 Y108.5233 I5.3758 J-44.9547
G2 X259.5782 Y108.2311 I-159.7049 J2012.5459
G1 X254.3781 Y108.0844
G1 X254.3772
G2 X172.5041 Y106.1333 I-271.9931 J9694.9606
G1 F800.0 X172.5539 Y103.5938
G2 F1000.0 X143.3468 Y103.0652 I-190.1698 J9699.4512
G1 X138.353 Y103.0545
G3 X91.3947 Y105.4479 I-25.2958 J-34.4442
G1 X65.9423 Y104.5355
G1 Y633.2996
G1 X93.1691 Y632.3236
G3 X153.408 Y662.5689 I18.3294 J38.6046
G2 X253.8274 Y660.2727 I-126.0018 J-7707.1997
G3 X273.4074 Y649.1097 I30.2067 J30.2297
G1 Y370.1876
G1 Y107.7776
G3 X263.776 Y106.0128 I2.8358 J-42.6408
G2 X259.7124 Y105.6939 I-160.1775 J2015.0564
G1 X254.4492 Y105.5454
G1 X254.4484
G2 X172.5539 Y103.5938 I-272.0643 J9697.4996
G1 F800.0 X172.6037 Y101.0543
G2 F1000.0 X143.3706 Y100.5252 I-190.2196 J9701.9907
G1 X137.5087 Y100.5127
G3 X92.1386 Y102.933 I-24.4515 J-31.9024
G1 X63.4023 Y101.9028
G1 Y635.9323
G1 X93.7929 Y634.8428
G3 X151.2751 Y665.1438 I17.7056 J36.0853
G2 X254.9277 Y662.7814 I-123.8689 J-7709.7746
G3 X275.9474 Y651.1293 I29.1064 J27.721
G1 Y370.1876
G1 Y105.3307
G3 X264.2571 Y103.5031 I0.2958 J-40.1939
G2 X259.8466 Y103.1567 I-160.6586 J2017.5661
G1 X254.5204 Y103.0064
G1 X254.5196
G2 X172.6037 Y101.0543 I-272.1356 J9700.0386
G1 F800.0 X172.6535 Y98.5148
G2 F1000.0 X143.3944 Y97.9853 I-190.2694 J9704.5302
G1 X136.6339 Y97.9708
G3 X92.905 Y100.4188 I-23.5767 J-29.3605
G1 X60.8623 Y99.2701
G1 Y638.565
G1 X94.4346 Y637.3615
G3 X149.0171 Y667.7265 I17.0639 J33.5667
G2 X150.4456 Y667.6979 I-11.2449 J-599.2257
G3 X150.6402 Y667.6943 I0.7962 J37.6466
G2 X256.0668 Y665.2888 I-123.234 J-7712.3251
G3 X278.4874 Y653.2582 I27.9673 J25.2136
G1 Y370.1876
G1 Y102.7249
G3 X264.7474 Y100.9941 I-2.2442 J-37.5881
G2 X259.9808 Y100.6195 I-161.149 J2020.0751
G1 X254.5916 Y100.4674
G1 X254.5909
G2 X172.6535 Y98.5148 I-272.2068 J9702.5776
G1 F800.0 X172.7033 Y95.9753
G2 F1000.0 X143.4182 Y95.4453 I-190.3192 J9707.0697
G1 X135.725 Y95.4288
G3 X93.6962 Y97.9056 I-22.6678 J-26.8186
G1 X58.3223 Y96.6374
G1 Y641.1977
G1 X95.0962 Y639.8794
G3 X146.608 Y670.3071 I16.4023 J31.0488
G2 X150.4993 Y670.2374 I-8.8357 J-601.8064
G3 X150.6808 Y670.234 I0.7425 J35.1071
G2 X257.2493 Y667.7947 I-123.2746 J-7714.8647
G3 X281.0274 Y655.5164 I26.7848 J22.7077
G1 Y370.1876
G1 Y99.9244
G3 X265.248 Y98.486 I-4.7842 J-34.7876
G2 X260.1149 Y98.0823 I-161.6495 J2022.5832
G1 X254.6628 Y97.9284
G1 X254.6621
G2 X172.7033 Y95.9753 I-272.278 J9705.1166
G1 F800.0 X172.7531 Y93.4358
G2 F1000.0 X143.4419 Y92.9054 I-190.369 J9709.6092
G1 X134.7778 Y92.8868
G3 X94.5154 Y95.3933 I-21.7205 J-24.2765
G1 X55.7823 Y94.0047
G1 Y643.8304
G1 X95.7799 Y642.3965
G3 X144.0735 Y670.9282 I15.7186 J28.5317
G1 Y672.8791
G2 X150.553 Y672.7768 I-6.3012 J-604.3784
G3 X150.7214 Y672.7737 I0.6888 J32.5677
G2 X258.4811 Y670.2991 I-123.3152 J-7717.4044
G3 X283.5674 Y657.9308 I25.553 J20.2033
G1 Y370.1876
G1 Y96.8778
G3 X265.7599 Y95.9788 I-7.3242 J-31.7409
G2 X260.249 Y95.5451 I-162.1614 J2025.0904
G1 X254.734 Y95.3894
G1 X254.7333
G2 X172.7531 Y93.4358 I-272.3492 J9707.6556
G1 F800.0 X172.8028 Y90.8963
G2 F1000.0 X143.4657 Y90.3654 I-190.4188 J9712.1487
G1 X133.7869 Y90.3447
G3 X95.3661 Y92.8822 I-20.7296 J-21.7344
G1 X53.2423 Y91.372
G1 Y646.4631
G1 X96.4886 Y644.9127
G3 X141.5335 Y670.9282 I15.0099 J26.0154
G1 Y675.4403
G2 X150.6067 Y675.3162 I-3.7612 J-606.9396
G3 X150.762 Y675.3134 I0.6351 J30.0283
G2 X259.7693 Y672.8015 I-123.3558 J-7719.9441
G3 X286.1074 Y660.5391 I24.2648 J17.7009
G1 Y370.1876
G1 Y93.5058
G3 X266.2844 Y93.4727 I-9.8642 J-28.369
G2 X260.3831 Y93.0079 I-162.686 J2027.5965
G1 X254.8051 Y92.8504
G1 X254.8046
G2 X172.8028 Y90.8963 I-272.4205 J9710.1946
G1 F800.0 X172.8526 Y88.3568
G2 F1000.0 X143.4895 Y87.8255 I-190.4686 J9714.6883
G1 X132.7457 Y87.8024
G3 X96.2528 Y90.3723 I-19.6885 J-19.1922
G1 X50.7023 Y88.7393
G1 Y649.0958
G1 X97.2256 Y647.4279
G3 X138.9935 Y670.9282 I14.2728 J23.5002
G1 Y677.9907
G2 X150.6604 Y677.8557 I-1.2212 J-609.49
G3 X150.8026 Y677.853 I0.5814 J27.4889
G2 X260.5067 Y675.3205 I-123.3964 J-7722.4838
G2 X261.1433 Y675.2713 I-143.2182 J-1857.8864
G3 X287.2593 Y663.1972 I22.8908 J15.2311
G1 X288.6474 Y663.1475
G1 Y370.1876
G1 Y89.6748
G3 X266.8234 Y90.9678 I-12.4042 J-24.538
G2 X260.5171 Y90.4706 I-163.2249 J2030.1014
G1 X254.8763 Y90.3114
G1 X254.8758
G2 X172.8526 Y88.3568 I-272.4917 J9712.7336
G1 F800.0 X172.9024 Y85.8173
G2 F1000.0 X143.5133 Y85.2855 I-190.5183 J9717.2278
G1 X131.6459 Y85.2601
G3 X97.1813 Y87.864 I-18.5886 J-16.6498
G1 X48.1623 Y86.1066
G1 Y651.7285
G1 X97.9955 Y649.942
G3 X136.4535 Y670.9282 I13.503 J20.9862
G1 Y680.5305
G2 X150.7142 Y680.3951 I1.3188 J-612.0298
G3 X150.8431 Y680.3927 I0.5277 J24.9494
G2 X260.6427 Y677.8575 I-123.437 J-7725.0234
G2 X262.6104 Y677.7048 I-143.3542 J-1860.4235
G3 X287.1504 Y665.7428 I21.4237 J12.7976
G1 X291.1874 Y665.598
G1 Y370.1876
G1 Y85.8925
G1 X290.1534 Y85.8554
G3 X267.3787 Y88.4643 I-13.9102 J-20.7186
G2 X260.6511 Y87.9334 I-163.7803 J2032.6049
G1 X254.9475 Y87.7724
G1 X254.947
G2 X172.9024 Y85.8173 I-272.5629 J9715.2726
G1 F800.0 X172.9522 Y83.2777
G2 F1000.0 X143.5371 Y82.7455 I-190.5681 J9719.7673
G1 X130.4761 Y82.7175
G3 X98.1587 Y85.3574 I-17.4189 J-14.1073
G1 X45.6223 Y83.4739
G1 Y654.3612
G1 X98.8036 Y652.4546
G3 X133.9135 Y670.9282 I12.6949 J18.4735
G1 Y683.0654
G1 X134.5511 Y683.0641
G3 X134.7104 Y683.0643 I0.0476 J22.4149
G2 X150.7679 Y682.9345 I3.0619 J-614.5636
G3 X150.8837 Y682.9324 I0.474 J22.41
G2 X260.7787 Y680.3946 I-123.4775 J-7727.5631
G2 X264.163 Y680.1308 I-143.4901 J-1862.9605
G3 X287.0311 Y668.2887 I19.8711 J10.3716
G1 X293.7274 Y668.0486
G1 Y370.1876
G1 Y83.4419
G1 X289.3968 Y83.2866
G3 X267.953 Y85.9624 I-13.1536 J-18.1498
G2 X260.785 Y85.3962 I-164.3546 J2035.1068
G1 X255.0187 Y85.2334
G1 X255.0183
G2 X172.9522 Y83.2777 I-272.6342 J9717.8116
G1 F800.0 X173.002 Y80.7382
G2 F1000.0 X143.5608 Y80.2056 I-190.6179 J9722.3068
G1 X129.2213 Y80.1748
G3 X99.195 Y82.8529 I-16.164 J-11.5646
G1 X43.0823 Y80.8412
G1 Y656.9938
G1 X99.6573 Y654.9657
G3 X131.3735 Y670.9282 I11.8412 J15.9625
G1 Y685.6108
G1 X134.5565 Y685.6041
G3 X134.6977 Y685.6043 I0.0422 J19.875
G2 X150.8216 Y685.474 I3.0746 J-617.1036
G3 X150.9243 Y685.4721 I0.4203 J19.8706
G2 X260.9146 Y682.9316 I-123.5181 J-7730.1028
G2 X265.8206 Y682.5474 I-143.6261 J-1865.4976
G3 X286.8993 Y670.835 I18.2136 J7.955
G1 X296.2856 Y670.4985
G3 X296.2674 Y669.648 I19.8517 J-0.8505
G1 Y370.1876
G1 Y81.8425
G3 X296.2856 Y80.992 I19.8699 J0.0
G1 X288.5846 Y80.7159
G3 X268.5497 Y83.4623 I-12.3413 J-15.5791
G2 X260.919 Y82.859 I-164.9512 J2037.6068
G1 X255.0899 Y82.6944
G1 X255.0895
G2 X173.002 Y80.7382 I-272.7054 J9720.3506
G1 F800.0 X173.0518 Y78.1987
G2 F1000.0 X143.5846 Y77.6656 I-190.6677 J9724.8463
G1 X128.621 Y77.6336
G3 X127.7593 Y77.7945 I-654.95 J-3503.2281
G3 X100.3035 Y80.351 I-14.7021 J-9.1843
G1 X40.5423 Y78.2086
G1 Y659.6265
G1 X100.5666 Y657.4747
G3 X128.8335 Y670.9282 I10.9319 J13.4535
G1 Y688.1562
G1 X134.5619 Y688.1441
G3 X134.6851 Y688.1443 I0.0368 J17.335
G2 X150.8753 Y688.0134 I3.0872 J-619.6435
G3 X150.9649 Y688.0117 I0.3666 J17.3311
G2 X261.0505 Y685.4687 I-123.5587 J-7732.6425
G2 X267.6117 Y684.9521 I-143.762 J-1868.0346
G3 X286.7527 Y673.3819 I16.4224 J5.5503
G1 X299.1226 Y672.9384
G3 X298.8074 Y669.648 I17.0147 J-3.2904
G1 Y370.1876
G1 Y81.8425
G3 X299.1226 Y78.552 I17.3299 J0.0
G1 X287.704 Y78.1427
G3 X269.1732 Y80.9646 I-11.4608 J-13.0059
G2 X261.0529 Y80.3218 I-165.5748 J2040.1046
G1 X255.1611 Y80.1554
G1 X255.1607
G2 X173.0518 Y78.1987 I-272.7766 J9722.8896
G1 F800.0 X173.1016 Y75.6592
G2 F1000.0 X143.6084 Y75.1257 I-190.7175 J9727.3858
G1 X128.3882 Y75.093
G3 X126.5548 Y75.4354 I-654.7173 J-3500.6876
G1 X126.5549
G1 X126.5548
G2 X126.1437 Y75.5122 I1646.8981 J8822.8915
G3 X101.5041 Y77.8524 I-13.0865 J-6.9019
G1 X38.0023 Y75.5759
G1 Y662.2592
G1 X101.5458 Y659.9812
G3 X126.2935 Y670.9282 I9.9527 J10.9469
G1 Y690.3059
G3 X128.3882 Y690.6972 I-1227.8603 J6579.8689
G1 X134.5673 Y690.6841
G3 X134.6724 Y690.6842 I0.0314 J14.795
G2 X150.929 Y690.5528 I3.0999 J-622.1835
G3 X151.0055 Y690.5514 I0.3129 J14.7917
G2 X261.1864 Y688.0057 I-123.5993 J-7735.1821
G2 X269.5808 Y687.341 I-143.8979 J-1870.5717
G3 X286.5877 Y675.9295 I14.4533 J3.1614
G1 X302.4946 Y675.3592
G3 X301.3474 Y669.648 I13.6427 J-5.7112
G1 Y370.1876
G1 Y81.8425
G3 X302.4946 Y76.1313 I14.7899 J0.0
G1 X286.7369 Y75.5664
G3 X269.83 Y78.4696 I-10.4936 J-10.4296
G2 X261.1867 Y77.7845 I-166.2315 J2042.5996
G1 X255.2322 Y77.6164
G1 X255.2319
G2 X173.1016 Y75.6592 I-272.8479 J9725.4286
G1 F800.0 X173.1514 Y73.1197
G2 F1000.0 X143.6473 Y72.586 I-190.7673 J9729.9253
G2 X143.617 Y72.5857 I-0.0347 J2.0947
G1 X128.3519 Y72.553
G2 X127.9623 Y72.5887 I-0.0045 J2.095
G3 X126.0892 Y72.9385 I-654.2913 J-3498.1832
G2 X126.0888 Y72.9386 I0.3841 J2.0595
G2 X125.4639 Y73.0552 I1647.3642 J8825.3884
G2 X123.9811 Y74.165 I0.3846 J2.0594
G3 X103.3803 Y76.1296 I-10.9238 J-5.5548
G2 X101.801 Y75.3214 I-1.6543 J1.2854
G1 X37.6324 Y73.021
G2 X35.4623 Y75.1146 I-0.0751 J2.0937
G1 Y662.7205
G2 X37.6324 Y664.8141 I2.095 J0.0
G1 X101.801 Y662.5137
G2 X103.1527 Y661.9542 I-0.0751 J-2.0937
G3 X123.7535 Y670.9282 I8.3458 J8.974
G1 Y690.6756
G2 X125.4643 Y692.7351 I2.095 J0.0
G3 X127.9625 Y693.2016 I-1227.0311 J6577.4398
G2 X128.3519 Y693.2373 I0.385 J-2.0593
G1 X134.5727 Y693.2241
G3 X134.6597 Y693.2242 I0.026 J12.255
G2 X150.9827 Y693.0923 I3.1125 J-624.7235
G3 X151.0461 Y693.0911 I0.2591 J12.2523
G2 X261.2735 Y690.5442 I-123.6399 J-7737.7218
G2 X261.3709 Y690.539 I-0.0633 J-2.094
G2 X270.1195 Y689.8455 I-144.0823 J-1873.105
G2 X272.0054 Y688.1582 I-0.1704 J-2.0881
G3 X286.1883 Y678.4382 I12.0287 J2.3442
G2 X286.6317 Y678.4695 I0.3683 J-2.0624
G1 X306.9418 Y677.7414
G3 X303.8874 Y669.648 I9.1955 J-8.0934
G1 Y370.1876
G1 Y81.8425
G3 X306.9418 Y73.7491 I12.2499 J0.0
G1 X286.6317 Y73.021
G2 X285.0509 Y73.6579 I-0.0751 J2.0937
G3 X270.868 Y76.1501 I-8.8077 J-8.5211
G2 X270.1191 Y75.9447 I-0.9189 J1.8827
G2 X261.3713 Y75.2512 I-166.5206 J2045.1245
G2 X261.2697 Y75.2459 I-0.1611 J2.0888
G1 X255.3034 Y75.0774
G1 X255.3032
G2 X173.1514 Y73.1197 I-272.9191 J9727.9676
G0 Z3.0
G0 X306.4454 Y81.2512
G0 Z1.0
G1 F800.0 Z-3.0
G3 F1000.0 X316.4852 Y72.1388 I9.6919 J0.5912
G1 X381.3266 Y74.4634
G3 X390.6886 Y84.167 I-0.3479 J9.7037
G1 Y228.95
G1 Y592.9121
G1 Y667.2393
G1 Y667.3234
G3 X381.3266 Y677.0271 I-9.7099 J0.0
G1 X316.4852 Y679.3517
G3 X306.4274 Y669.648 I-0.3479 J-9.7037
G1 Y370.1876
G1 Y81.8425
G3 X306.4454 Y81.2512 I9.7099 J0.0
G1 F800.0 X308.9756 Y81.4056
G3 F1000.0 X316.3944 Y74.6721 I7.1617 J0.4369
G1 X381.2358 Y76.9966
G3 X388.1537 Y84.167 I-0.2571 J7.1704
G1 Y228.95
G1 Y592.9121
G1 Y667.2393
G1 Y667.3234
G3 X381.2358 Y674.4938 I-7.175 J0.0
G1 X316.3944 Y676.8184
G3 X308.9623 Y669.648 I-0.2571 J-7.1704
G1 Y370.1876
G1 Y81.8425
G3 X308.9756 Y81.4056 I7.175 J0.0
G0 Z3.0
G0 X309.3381 Y71.2934
G0 Z1.0
G1 F800.0 Z-3.0
G1 F1000.0 X286.7227 Y70.4826
G2 X283.2254 Y71.8918 I-0.1661 J4.632
G3 X271.9821 Y73.8674 I-6.9822 J-6.755
G2 X270.3252 Y73.4131 I-2.033 J4.1654
G2 X261.5666 Y72.7188 I-166.7268 J2047.6561
G2 X261.342 Y72.7069 I-0.3564 J4.6213
G1 X255.3746 Y72.5384
G1 X255.3744
G2 X143.6894 Y70.0463 I-272.9903 J9730.5066
G2 X143.6225 Y70.0457 I-0.0768 J4.6344
G1 X128.3574 Y70.013
G2 X127.4953 Y70.092 I-0.0099 J4.635
G3 X125.6235 Y70.4415 I-653.8244 J-3495.6865
G2 X125.6227 Y70.4417 I0.8497 J4.5564
G2 X124.9977 Y70.5584 I1647.8302 J8827.8852
G2 X121.717 Y73.0137 I0.8508 J4.5562
G3 X105.3859 Y74.5712 I-8.6597 J-4.4035
G2 X101.892 Y72.7831 I-3.66 J2.8439
G1 X37.7234 Y70.4826
G2 X32.9223 Y75.1146 I-0.1661 J4.632
G1 Y662.7205
G2 X37.7234 Y667.3525 I4.635 J0.0
G1 X101.892 Y665.0521
G2 X104.8825 Y663.8141 I-0.1661 J-4.632
G3 X121.2135 Y670.9282 I6.616 J7.114
G1 Y690.6756
G2 X124.9985 Y695.232 I4.635 J0.0
G3 X127.4957 Y695.6983 I-1226.5653 J6574.9429
G2 X128.3573 Y695.7773 I0.8517 J-4.5561
G1 X134.5781 Y695.7641
G3 X134.6471 Y695.7642 I0.0206 J9.715
G2 X151.0364 Y695.6317 I3.1252 J-627.2634
G3 X151.0866 Y695.6308 I0.2054 J9.7128
G2 X261.3502 Y693.0831 I-123.6804 J-7740.2615
G2 X261.5657 Y693.0715 I-0.1401 J-4.6329
G2 X270.3262 Y692.3771 I-144.2772 J-1875.6375
G2 X274.4985 Y688.6441 I-0.3771 J-4.6196
G3 X285.7419 Y680.9387 I9.5356 J1.8583
G2 X286.7227 Y681.0079 I0.8148 J-4.5628
G1 X396.8949 Y677.0582
G2 X399.6289 Y676.0418 I-0.1661 J-4.632
G3 X415.4225 Y683.6202 I6.0786 J7.5784
G1 Y684.8393
G2 X419.902 Y689.4717 I4.635 J0.0
G2 X539.5765 Y692.4972 I242.3493 J-7217.6567
G2 X539.645 Y692.4979 I0.0787 J-4.6343
G2 X564.2082 Y692.3922 I4.1656 J-1885.5822
G2 X568.7931 Y687.7574 I-0.0501 J-4.6347
G1 Y72.1965
G2 X564.2075 Y67.5617 I-4.635 J0.0
G2 X539.6457 Y67.456 I-20.5886 J1930.4287
G2 X539.5688 Y67.4568 I0.0095 J4.635
G2 X426.2654 Y70.2822 I168.1795 J9017.4811
G1 X426.2653 Y70.2823
G1 X419.9109 Y70.4819
G2 X415.852 Y73.1659 I0.1466 J4.6327
G3 X400.0585 Y75.8399 I-8.8147 J-4.0845
G2 X396.8949 Y74.4323 I-3.3296 J3.2244
G1 X309.3381 Y71.2934
G1 F800.0 X309.4291 Y68.755
G1 F1000.0 X286.8137 Y67.9442
G2 X281.3999 Y70.1257 I-0.2571 J7.1704
G3 X273.0962 Y71.5848 I-5.1567 J-4.9889
G2 X270.5314 Y70.8814 I-3.1471 J6.448
G2 X261.7619 Y70.1863 I-166.9329 J2050.1877
G2 X261.4142 Y70.1679 I-0.5517 J7.1538
G1 X255.4458 Y69.9994
G1 X255.4456
G2 X143.7314 Y67.5067 I-273.0616 J9733.0456
G2 X143.6279 Y67.5057 I-0.1189 J7.174
G1 X128.3628 Y67.473
G2 X127.0283 Y67.5953 I-0.0154 J7.175
G3 X125.1579 Y67.9446 I-653.3574 J-3493.1898
G2 X125.1567 Y67.9448 I1.3153 J7.0534
G2 X124.5314 Y68.0615 I1648.2963 J8830.3821
G2 X119.4529 Y71.8624 I1.3171 J7.0531
G3 X107.3916 Y73.0127 I-6.3956 J-3.2522
G2 X101.983 Y70.2447 I-5.6656 J4.4024
G1 X37.8144 Y67.9442
G2 X30.3823 Y75.1146 I-0.2571 J7.1704
G1 Y662.7205
G2 X37.8144 Y669.8909 I7.175 J0.0
G1 X101.983 Y667.5904
G2 X106.6122 Y665.6741 I-0.2571 J-7.1704
G3 X118.6735 Y670.9282 I4.8863 J5.2541
G1 Y690.6756
G2 X124.5327 Y697.7289 I7.175 J0.0
G3 X127.029 Y698.1951 I-1226.0995 J6572.446
G2 X128.3627 Y698.3173 I1.3185 J-7.0528
G1 X134.5835 Y698.3041
G3 X134.6344 I0.0152 J7.175
G2 X151.0901 Y698.1711 I3.1378 J-629.8034
G3 X151.1272 Y698.1704 I0.1517 J7.1734
G2 X261.427 Y695.6219 I-123.721 J-7742.8012
G2 X261.7605 Y695.6041 I-0.2168 J-7.1717
G2 X270.5328 Y694.9087 I-144.472 J-1878.17
G2 X276.9916 Y689.1299 I-0.5837 J-7.1512
G3 X285.2954 Y683.4391 I7.0425 J1.3725
G2 X286.8137 Y683.5462 I1.2612 J-7.0633
G1 X396.9859 Y679.5965
G2 X401.2182 Y678.0232 I-0.2571 J-7.1704
G3 X412.8825 Y683.6202 I4.4893 J5.597
G1 Y684.8393
G2 X419.8167 Y692.0103 I7.175 J0.0
G2 X539.5334 Y695.0369 I242.4346 J-7220.1953
G2 X539.6394 Y695.0379 I0.1219 J-7.174
G2 X564.2357 Y694.932 I4.1712 J-1888.1221
G2 X571.3331 Y687.7574 I-0.0776 J-7.1746
G1 Y72.1965
G2 X564.2346 Y65.0219 I-7.175 J0.0
G2 X539.6405 Y64.916 I-20.6156 J1932.9685
G2 X539.5215 Y64.9173 I0.0148 J7.175
G2 X426.1862 Y67.7435 I168.2268 J9020.0207
G1 X426.186
G1 X419.8306 Y67.9432
G2 X413.5474 Y72.0981 I0.2269 J7.1714
G3 X401.8831 Y74.0729 I-6.5101 J-3.0166
G2 X396.9859 Y71.8939 I-5.1543 J4.9914
G1 X309.4291 Y68.755
G0 Z3.0
G0 X478.1274 Y155.2004
G0 Z-2.0
G1 F800.0 Z-6.0
G1 F1000.0 Y604.8033
G2 X482.4331 Y604.9131 I184.1239 J-7132.9883
G1 Y155.0908
G2 X478.1274 Y155.2004 I225.3152 J8929.8472
G1 F800.0 X478.0621 Y152.6613
G2 F1000.0 X475.5874 Y152.7252 I229.6862 J8932.2767
G1 Y607.2781
G2 X484.9731 Y607.5175 I186.6639 J-7135.4631
G1 Y152.4862
G2 X478.0621 Y152.6613 I222.7752 J8932.4517
G1 F800.0 X477.9968 Y150.1221
G2 F1000.0 X473.0474 Y150.2508 I229.7515 J8934.8158
G1 Y609.7521
G2 X487.5131 Y610.1209 I189.2039 J-7137.9371
G1 Y149.8825
G2 X477.9968 Y150.1221 I220.2352 J8935.0555
G1 F800.0 X477.9315 Y147.583
G2 F1000.0 X470.5074 Y147.7769 I229.8168 J8937.355
G1 Y612.2252
G2 X490.0531 Y612.7233 I191.7439 J-7140.4103
G1 Y147.2795
G2 X477.9315 Y147.583 I217.6952 J8937.6585
G1 F800.0 X477.8662 Y145.0438
G2 F1000.0 X467.9674 Y145.3038 I229.8821 J8939.8942
G1 Y614.6975
G2 X492.5931 Y615.3248 I194.2839 J-7142.8826
G1 Y144.6772
G2 X477.8662 Y145.0438 I215.1552 J8940.2607
G1 F800.0 X477.8009 Y142.5046
G2 F1000.0 X465.4274 Y142.8314 I229.9474 J8942.4333
G1 Y617.1689
G2 X495.1331 Y617.9254 I196.8239 J-7145.354
G1 Y142.0758
G2 X477.8009 Y142.5046 I212.6152 J8942.8622
G1 F800.0 X477.7356 Y139.9655
G2 F1000.0 X462.8874 Y140.3596 I230.0127 J8944.9725
G1 Y619.6395
G2 X497.6731 Y620.525 I199.3639 J-7147.8245
G1 Y139.475
G2 X477.7356 Y139.9655 I210.0752 J8945.4629
G1 F800.0 X477.6704 Y137.4263
G2 F1000.0 X460.3474 Y137.8885 I230.078 J8947.5116
G1 Y622.1092
G2 X500.2131 Y623.1237 I201.9039 J-7150.2943
G1 Y136.8751
G2 X477.6704 Y137.4263 I207.5352 J8948.0629
G1 F800.0 X477.6051 Y134.8871
G2 F1000.0 X457.8074 Y135.4181 I230.1432 J8950.0508
G1 Y624.5781
G2 X502.7531 Y625.7214 I204.4439 J-7152.7631
G1 Y134.2758
G2 X477.6051 Y134.8871 I204.9952 J8950.6621
G1 F800.0 X477.5398 Y132.348
G2 F1000.0 X455.2674 Y132.9484 I230.2085 J8952.59
G1 Y627.0461
G2 X505.2931 Y628.3182 I206.9839 J-7155.2311
G1 Y131.6774
G2 X477.5398 Y132.348 I202.4552 J8953.2606
G1 F800.0 X477.4745 Y129.8088
G2 F1000.0 X452.7274 Y130.4794 I230.2738 J8955.1291
G1 Y629.5133
G2 X507.8331 Y630.9141 I209.5239 J-7157.6983
G1 Y129.0797
G2 X477.4745 Y129.8088 I199.9152 J8955.8583
G1 F800.0 X477.4092 Y127.2697
G2 F1000.0 X450.1874 Y128.011 I230.3391 J8957.6683
G1 Y631.9796
G2 X510.3731 Y633.509 I212.0639 J-7160.1646
G1 Y126.4827
G2 X477.4092 Y127.2697 I197.3752 J8958.4552
G1 F800.0 X477.3439 Y124.7305
G2 F1000.0 X447.6474 Y125.5434 I230.4044 J8960.2074
G1 Y633.1845
G3 X449.1699 Y634.4905 I-41.9399 J50.4356
G2 X512.9131 Y636.103 I213.0814 J-7162.6755
G1 Y123.8865
G2 X477.3439 Y124.7305 I194.8352 J8961.0514
G1 F800.0 X477.2786 Y122.1913
G2 F1000.0 X445.1074 Y123.0764 I230.4697 J8962.7466
G1 Y634.3903
G3 X448.1651 Y637.0017 I-39.3999 J49.2299
G2 X515.4531 Y638.696 I214.0862 J-7165.1867
G1 Y121.2911
G2 X477.2786 Y122.1913 I192.2952 J8963.6469
G1 F800.0 X477.2133 Y119.6522
G2 F1000.0 X442.5674 Y120.6101 I230.535 J8965.2858
G1 Y635.6263
G3 X447.1387 Y639.5121 I-36.8599 J47.9939
G2 X517.9931 Y641.2881 I215.1126 J-7167.6971
G1 Y118.6964
G2 X477.2133 Y119.6522 I189.7552 J8966.2416
G1 F800.0 X477.148 Y117.113
G2 F1000.0 X440.0274 Y118.1444 I230.6003 J8967.8249
G1 Y636.8949
G3 X446.089 Y642.0216 I-34.3199 J46.7252
G2 X520.5331 Y643.8792 I216.1623 J-7170.2067
G1 Y116.1024
G2 X477.148 Y117.113 I187.2152 J8968.8355
G1 F800.0 X477.0827 Y114.5739
G2 F1000.0 X437.4874 Y115.6795 I230.6656 J8970.3641
G1 Y638.199
G3 X445.0143 Y644.5303 I-31.7799 J45.4211
G2 X523.0731 Y646.4694 I217.237 J-7172.7154
G1 Y113.5092
G2 X477.0827 Y114.5739 I184.6752 J8971.4287
G1 F800.0 X477.0174 Y112.0347
G2 F1000.0 X436.2537 Y113.1756 I230.7309 J8972.9032
G3 X434.9474 Y114.0138 I-29.2163 J-44.0941
G1 Y639.5417
G3 X443.9126 Y647.0381 I-29.2399 J44.0785
G2 X525.6131 Y649.0587 I218.3387 J-7175.2231
G1 Y110.9168
G2 X477.0174 Y112.0347 I182.1352 J8974.0212
G1 F800.0 X476.9521 Y109.4955
G2 F1000.0 X435.4441 Y110.6589 I230.7962 J8975.4424
G3 X432.4074 Y112.5785 I-28.4067 J-41.5774
G1 Y640.9266
G3 X442.7817 Y649.5447 I-26.6999 J42.6936
G2 X528.1531 Y651.6471 I219.4696 J-7177.7298
G1 Y108.3251
G2 X476.9521 Y109.4955 I179.5952 J8976.6129
G1 F800.0 X476.8868 Y106.9564
G2 F1000.0 X434.6141 Y108.143 I230.8615 J8977.9816
G3 X429.8674 Y111.0942 I-27.5767 J-39.0615
G1 Y642.3579
G3 X441.6188 Y652.0503 I-24.1599 J41.2623
G2 X530.6931 Y654.2345 I220.6325 J-7180.2353
G1 Y105.7341
G2 X476.8868 Y106.9564 I177.0552 J8979.2038
G1 F800.0 X476.8215 Y104.4172
G2 F1000.0 X433.7618 Y105.6278 I230.9268 J8980.5207
G3 X427.3274 Y109.5554 I-26.7244 J-36.5463
G1 Y643.8407
G3 X440.4209 Y654.5546 I-21.6199 J39.7795
G2 X533.2331 Y656.821 I221.8304 J-7182.7396
G1 Y103.1439
G2 X476.8215 Y104.4172 I174.5152 J8981.794
G1 F800.0 X476.7563 Y101.8781
G2 F1000.0 X432.8852 Y103.1134 I230.992 J8983.0599
G3 X424.7874 Y107.9559 I-25.8478 J-34.0319
G1 Y645.3809
G3 X439.1845 Y657.0575 I-19.0799 J38.2392
G2 X535.7731 Y659.4065 I223.0668 J-7185.2426
G1 Y100.5545
G2 X476.7563 Y101.8781 I171.9752 J8984.3835
G1 F800.0 X476.691 Y99.3389
G2 F1000.0 X431.9819 Y100.5999 I231.0573 J8985.599
G3 X422.2474 Y106.2876 I-24.9445 J-31.5184
G1 Y646.9859
G3 X437.9053 Y659.5589 I-16.5399 J36.6343
G2 X538.3131 Y661.9912 I224.346 J-7187.744
G1 Y97.9657
G2 X476.691 Y99.3389 I169.4352 J8986.9722
G1 F800.0 X476.6257 Y96.7997
G2 F1000.0 X431.049 Y98.0873 I231.1226 J8988.1382
G3 X419.7074 Y104.5409 I-24.0116 J-29.0059
G1 Y648.6644
G3 X436.5782 Y662.0586 I-13.9999 J34.9557
G2 X539.8786 Y664.5583 I225.6731 J-7190.2437
G2 X540.8531 Y664.5602 I3.9321 J-1857.6426
G1 Y95.394
G2 X539.8961 Y95.3956 I2.7659 J1902.5964
G2 X476.6257 Y96.7997 I167.8522 J8989.5424
G1 F800.0 X476.5604 Y94.2606
G2 F1000.0 X430.0831 Y95.5759 I231.1879 J8990.6774
G3 X417.1674 Y102.7036 I-23.0458 J-26.4944
G1 Y650.4278
G3 X435.1971 Y664.5564 I-11.4599 J33.1924
G2 X539.8543 Y667.0983 I227.0542 J-7192.7415
G2 X543.3931 Y667.1025 I3.9564 J-1860.1825
G1 Y92.852
G2 X539.8699 Y92.8556 I0.2259 J1905.1384
G2 X476.5604 Y94.2606 I167.8784 J8992.0823
G1 F800.0 X476.4951 Y91.7214
G2 F1000.0 X429.0802 Y93.0657 I231.2532 J8993.2165
G3 X414.6274 Y100.7599 I-22.0428 J-23.9843
G1 Y652.2902
G3 X433.7544 Y667.052 I-8.9199 J31.33
G2 X539.83 Y669.6383 I228.4969 J-7195.2371
G2 X545.9331 Y669.6413 I3.9807 J-1862.7225
G1 Y90.3134
G2 X539.8437 Y90.3157 I-2.3141 J1907.677
G2 X476.4951 Y91.7214 I167.9046 J8994.6223
G1 F800.0 X476.4298 Y89.1823
G2 F1000.0 X428.0351 Y90.557 I231.3185 J8995.7557
G3 X412.0874 Y98.6889 I-20.9977 J-21.4755
G1 Y654.2706
G3 X432.2404 Y669.5451 I-6.3799 J29.3496
G2 X539.8056 Y672.1782 I230.0109 J-7197.7301
G2 X548.4731 Y672.1767 I4.005 J-1865.2625
G1 Y87.7781
G2 X539.8175 Y87.7757 I-4.8541 J1910.2123
G2 X476.4298 Y89.1823 I167.9308 J8997.1622
G1 F800.0 X476.3645 Y86.6431
G2 F1000.0 X426.9416 Y88.0498 I231.3838 J8998.2949
G3 X409.5474 Y96.4617 I-19.9042 J-18.9683
G1 Y656.3946
G3 X430.6427 Y672.0352 I-3.8399 J27.2255
G2 X539.7813 Y674.7182 I231.6086 J-7200.2202
G2 X551.0131 Y674.7086 I4.0293 J-1867.8024
G1 Y85.2462
G2 X539.7912 Y85.2358 I-7.3941 J1912.7442
G2 X476.3645 Y86.6431 I167.9571 J8999.7022
G1 F800.0 X476.2992 Y84.1039
G2 F1000.0 X426.7411 Y85.5148 I231.4491 J9000.834
G1 X426.7407
G1 X425.7916 Y85.5445
G3 X407.0074 Y94.0365 I-18.7542 J-16.463
G1 Y658.699
G3 X428.9448 Y674.5217 I-1.2999 J24.9211
G2 X539.757 Y677.2581 I233.3065 J-7202.7067
G2 X553.5531 Y677.2371 I4.0537 J-1870.3424
G1 Y82.7177
G2 X539.765 Y82.6958 I-9.9341 J1915.2727
G2 X476.2992 Y84.1039 I167.9833 J9002.2421
G1 F800.0 X476.2339 Y81.5648
G2 F1000.0 X426.6618 Y82.9761 I231.5144 J9003.3732
G1 X426.6614
G1 X424.5746 Y83.0413
G3 X404.4674 Y91.3487 I-17.5372 J-13.9599
G1 Y661.2395
G3 X427.1238 Y677.0038 I1.2401 J22.3807
G2 X539.7326 Y679.7981 I235.1275 J-7205.1888
G2 X556.0931 Y679.7622 I4.078 J-1872.8823
G1 Y80.1925
G2 X539.7387 Y80.1559 I-12.4741 J1917.7979
G2 X476.2339 Y81.5648 I168.0096 J9004.7821
G1 F800.0 X476.1686 Y79.0256
G2 F1000.0 X426.5825 Y80.4373 I231.5797 J9005.9123
G1 X426.5822
G1 X423.2762 Y80.5409
G3 X401.9274 Y88.2884 I-16.2388 J-11.4594
G1 Y664.108
G3 X425.1466 Y679.4804 I3.7801 J19.5122
G2 X539.7083 Y682.338 I237.1047 J-7207.6654
G2 X558.6331 Y682.2839 I4.1024 J-1875.4223
G1 Y77.6706
G2 X539.7124 Y77.6159 I-15.0141 J1920.3198
G2 X476.1686 Y79.0256 I168.0359 J9007.322
G1 F800.0 X476.1033 Y76.4865
G2 F1000.0 X426.5032 Y77.8985 I231.645 J9008.4515
G1 X426.503
G1 X421.8759 Y78.0437
G3 X399.3874 Y84.6372 I-14.8385 J-8.9622
G1 Y667.4783
G3 X422.9618 Y681.9496 I6.3201 J16.1418
G2 X539.6839 Y684.878 I239.2895 J-7210.1346
G2 X561.1731 Y684.8022 I4.1267 J-1877.9622
G1 Y75.1521
G2 X539.6862 Y75.076 I-17.5541 J1922.8383
G2 X476.1033 Y76.4865 I168.0621 J9009.862
G1 F800.0 X476.038 Y73.9473
G2 F1000.0 X426.424 Y75.3598 I231.7103 J9010.9907
G1 X426.4237
G1 X420.343 Y75.5508
G3 X396.5354 Y79.5027 I-13.3056 J-6.4693
G1 X396.2003 Y79.4907
G3 X396.8474 Y83.8175 I-14.1428 J4.3269
G1 Y667.6729
G3 X396.2003 Y671.9998 I-14.7899 J0.0
G1 X396.5667 Y671.9867
G3 X420.5025 Y683.6202 I9.1408 J11.6335
G1 Y684.409
G2 X539.6595 Y687.4179 I241.7488 J-7212.594
G2 X563.7131 Y687.3172 I4.1511 J-1880.5022
G1 Y72.6368
G2 X539.6599 Y72.536 I-20.0941 J1925.3536
G2 X476.038 Y73.9473 I168.0884 J9012.4019
G1 F800.0 X475.9727 Y71.4081
G2 F1000.0 X426.3447 Y72.821 I231.7756 J9013.5298
G1 X426.3445
G1 X419.9912 Y73.0207
G2 X418.1566 Y74.2338 I0.0663 J2.094
G3 X398.2338 Y77.6069 I-11.1193 J-5.1523
G2 X396.8039 Y76.9707 I-1.505 J1.4574
G1 X392.0995 Y76.802
G3 X394.3074 Y83.8175 I-10.0421 J7.0155
G1 Y667.6729
G3 X392.0995 Y674.6885 I-12.2499 J0.0
G1 X396.8039 Y674.5198
G2 X398.0397 Y674.0604 I-0.0751 J-2.0937
G3 X417.9625 Y683.6202 I7.6679 J9.5598
G1 Y684.8393
G2 X419.9872 Y686.9331 I2.095 J0.0
G2 X539.6197 Y689.9576 I242.2641 J-7215.1182
G2 X539.6506 Y689.9579 I0.0356 J-2.0947
G2 X564.1807 Y689.8523 I4.16 J-1883.0422
G2 X566.2531 Y687.7574 I-0.0227 J-2.0949
G1 Y72.1965
G2 X564.1804 Y70.1016 I-2.095 J0.0
G2 X539.651 Y69.996 I-20.5615 J1927.8888
G2 X539.6162 Y69.9964 I0.0043 J2.095
G2 X475.9727 Y71.4081 I168.1321 J9014.9416
G0 Z3.0
G0 X169.7813 Y205.159
G0 Z-2.0
G1 F800.0 Z-6.0
G2 F1000.0 X167.5423 Y205.1156 I-187.3972 J9597.886
G1 Y537.9181
G3 X169.7813 Y538.8838 I-56.0438 J133.0101
G1 Y344.5371
G1 Y205.159
G1 F800.0 X169.8309 Y202.6195
G2 F1000.0 X165.0023 Y202.5265 I-187.4468 J9600.4255
G1 Y539.6149
G3 X172.3213 Y542.8407 I-53.5038 J131.3132
G1 Y344.5371
G1 Y202.6685
G2 X169.8309 Y202.6195 I-189.9372 J9600.3766
G1 F800.0 X169.8805 Y200.08
G2 F1000.0 X162.4623 Y199.938 I-187.4964 J9602.965
G1 Y541.334
G3 X174.8613 Y546.9237 I-50.9638 J129.5941
G1 Y344.5371
G1 Y200.1785
G2 X169.8805 Y200.08 I-192.4772 J9602.8665
G1 F800.0 X169.9301 Y197.5405
G2 F1000.0 X159.9223 Y197.3503 I-187.546 J9605.5045
G1 Y543.0762
G3 X177.4013 Y551.1458 I-48.4238 J127.852
G1 Y344.5371
G1 Y197.6893
G2 X169.9301 Y197.5405 I-195.0172 J9605.3558
G1 F800.0 X169.9796 Y195.001
G2 F1000.0 X158.6897 Y194.7872 I-187.5956 J9608.044
G3 X157.3823 Y195.2524 I-45.6324 J-126.1769
G1 Y544.8425
G3 X179.9413 Y555.5223 I-45.8838 J126.0857
G1 Y344.5371
G1 Y195.2006
G2 X169.9796 Y195.001 I-197.5572 J9607.8444
G1 F800.0 X170.0292 Y192.4615
G2 F1000.0 X158.2648 Y192.239 I-187.6452 J9610.5836
G3 X154.8423 Y193.4373 I-45.2075 J-123.6287
G1 Y546.6338
G3 X182.4813 Y560.0714 I-43.3438 J124.2944
G1 Y344.5371
G1 Y192.7126
G2 X170.0292 Y192.4615 I-200.0972 J9610.3324
G1 F800.0 X170.0788 Y189.9219
G2 F1000.0 X157.8351 Y189.6907 I-187.6947 J9613.1231
G3 X152.3023 Y191.5954 I-44.7778 J-121.0804
G1 Y548.4514
G3 X185.0213 Y564.8154 I-40.8038 J122.4768
G1 Y344.5371
G1 Y190.2253
G2 X170.0788 Y189.9219 I-202.6372 J9612.8197
G1 F800.0 X170.1284 Y187.3824
G2 F1000.0 X157.4004 Y187.1423 I-187.7443 J9615.6626
G3 X149.7623 Y189.7255 I-44.3432 J-118.5321
G1 Y550.2963
G3 X187.5613 Y569.7817 I-38.2638 J120.6319
G1 Y344.5371
G1 Y187.7386
G2 X170.1284 Y187.3824 I-205.1772 J9615.3064
G1 F800.0 X170.178 Y184.8429
G2 F1000.0 X156.9607 Y184.5939 I-187.7939 J9618.2021
G3 X147.2223 Y187.8263 I-43.9034 J-115.9837
G1 Y552.1699
G3 X190.1013 Y575.0047 I-35.7238 J118.7583
G1 Y344.5371
G1 Y185.2525
G2 X170.178 Y184.8429 I-207.7172 J9617.7925
G1 F800.0 X170.2276 Y182.3034
G2 F1000.0 X156.5157 Y182.0454 I-187.8435 J9620.7416
G3 X144.6823 Y185.8964 I-43.4584 J-113.4352
G1 Y554.0735
G3 X192.6413 Y580.529 I-33.1838 J116.8547
G1 Y344.5371
G1 Y182.7671
G2 X170.2276 Y182.3034 I-210.2572 J9620.2779
G1 F800.0 X170.2771 Y179.7639
G2 F1000.0 X156.0653 Y179.4969 I-187.8931 J9623.2811
G3 X142.1423 Y183.9341 I-43.008 J-110.8866
G1 Y556.0087
G3 X194.3241 Y585.5733 I-30.6438 J114.9195
G2 X195.1813 Y585.5545 I-166.9179 J-7630.204
G1 Y344.5371
G1 Y180.2824
G2 X170.2771 Y179.7639 I-212.7972 J9622.7627
G1 F800.0 X170.3267 Y177.2244
G2 F1000.0 X155.6093 Y176.9483 I-187.9427 J9625.8207
G3 X139.6023 Y181.9379 I-42.552 J-108.338
G1 Y557.977
G3 X193.3108 Y588.136 I-28.1038 J112.9512
G2 X197.7213 Y588.0389 I-165.9046 J-7632.7667
G1 Y344.5371
G1 Y177.7982
G2 X170.3267 Y177.2244 I-215.3372 J9625.2468
G1 F800.0 X170.3763 Y174.6848
G2 F1000.0 X155.1475 Y174.3995 I-187.9922 J9628.3602
G3 X137.0623 Y179.9059 I-42.0902 J-105.7893
G1 Y559.9802
G3 X192.2835 Y590.6989 I-25.5638 J110.948
G2 X200.2613 Y590.5224 I-164.8773 J-7635.3296
G1 Y344.5371
G1 Y175.3147
G2 X170.3763 Y174.6848 I-217.8772 J9627.7303
G1 F800.0 X170.4259 Y172.1453
G2 F1000.0 X154.6797 Y171.8508 I-188.0418 J9630.8997
G3 X134.5223 Y177.8361 I-41.6225 J-103.2405
G1 Y562.0203
G3 X191.2417 Y593.2619 I-23.0238 J108.9079
G2 X202.8013 Y593.0052 I-163.8355 J-7637.8926
G1 Y344.5371
G1 Y172.8319
G2 X170.4259 Y172.1453 I-220.4172 J9630.2131
G1 F800.0 X170.4755 Y169.6058
G2 F1000.0 X154.2057 Y169.3019 I-188.0914 J9633.4392
G3 X131.9823 Y175.7263 I-41.1485 J-100.6916
G1 Y564.0993
G3 X190.1847 Y595.825 I-20.4838 J106.8289
G2 X205.3413 Y595.4871 I-162.7785 J-7640.4558
G1 Y344.5371
G1 Y170.3497
G2 X170.4755 Y169.6058 I-222.9572 J9632.6953
G1 F800.0 X170.5251 Y167.0663
G2 F1000.0 X153.7253 Y166.7529 I-188.141 J9635.9787
G3 X129.4423 Y173.5741 I-40.6681 J-98.1427
G1 Y566.2195
G3 X189.112 Y598.3884 I-17.9438 J104.7086
G2 X207.8813 Y597.9682 I-161.7058 J-7643.0191
G1 Y344.5371
G1 Y167.8681
G2 X170.5251 Y167.0663 I-225.4972 J9635.1769
G1 F800.0 X170.5746 Y164.5268
G2 F1000.0 X153.2383 Y164.2039 I-188.1906 J9638.5182
G3 X126.9023 Y171.3768 I-40.181 J-95.5936
G1 Y568.3837
G3 X188.0228 Y600.9519 I-15.4038 J102.5445
G2 X210.4213 Y600.4486 I-160.6167 J-7645.5826
G1 Y344.5371
G1 Y165.3872
G2 X170.5746 Y164.5268 I-228.0372 J9637.6578
G1 F800.0 X170.6242 Y161.9873
G2 F1000.0 X152.7443 Y161.6547 I-188.2402 J9641.0578
G3 X124.3623 Y169.1316 I-39.687 J-93.0445
G1 Y570.5944
G3 X186.9166 Y603.5156 I-12.8638 J100.3337
G2 X212.9613 Y602.9281 I-159.5104 J-7648.1464
G1 Y344.5371
G1 Y162.9069
G2 X170.6242 Y161.9873 I-230.5772 J9640.1381
G1 F800.0 X170.6738 Y159.4477
G2 F1000.0 X152.2431 Y159.1055 I-188.2897 J9643.5973
G3 X121.8223 Y166.835 I-39.1858 J-90.4952
G1 Y572.855
G3 X185.7923 Y606.0795 I-10.3238 J98.0731
G2 X215.5013 Y605.4068 I-158.3861 J-7650.7103
G1 Y344.5371
G1 Y160.4272
G2 X170.6738 Y159.4477 I-233.1172 J9642.6178
G1 F800.0 X170.7234 Y156.9082
G2 F1000.0 X151.7344 Y156.5562 I-188.3393 J9646.1368
G3 X119.2823 Y164.4834 I-38.6772 J-87.9459
G1 Y575.169
G3 X184.6493 Y608.6437 I-7.7838 J95.7592
G2 X218.0413 Y607.8847 I-157.2431 J-7653.2744
G1 Y344.5371
G1 Y157.9482
G2 X170.7234 Y156.9082 I-235.6572 J9645.0968
G1 F800.0 X170.773 Y154.3687
G2 F1000.0 X151.218 Y154.0067 I-188.3889 J9648.6763
G3 X116.7423 Y162.0726 I-38.1607 J-85.3965
G1 Y577.5403
G3 X183.4867 Y611.208 I-5.2438 J93.3879
G2 X220.5813 Y610.3618 I-156.0805 J-7655.8387
G1 Y344.5371
G1 Y155.4698
G2 X170.773 Y154.3687 I-238.1972 J9647.5752
G1 F800.0 X170.8226 Y151.8292
G2 F1000.0 X150.6934 Y151.4572 I-188.4385 J9651.2158
G3 X114.2023 Y159.5981 I-37.6361 J-82.8469
G1 Y579.9733
G3 X182.3033 Y613.7725 I-2.7038 J90.9548
G2 X223.1213 Y612.8381 I-154.8971 J-7658.4033
G1 Y344.5371
G1 Y152.9921
G2 X170.8226 Y151.8292 I-240.7372 J9650.0529
G1 F800.0 X170.8721 Y149.2897
G2 F1000.0 X150.1603 Y148.9075 I-188.4881 J9653.7553
G3 X111.6623 Y157.0543 I-37.1031 J-80.2972
G1 Y582.4733
G3 X181.0983 Y616.3373 I-0.1638 J88.4548
G2 X225.6613 Y615.3136 I-153.6921 J-7660.9681
G1 Y344.5371
G1 Y150.515
G2 X170.8721 Y149.2897 I-243.2772 J9652.53
G1 F800.0 X170.9217 Y146.7502
G2 F1000.0 X149.6184 Y146.3577 I-188.5377 J9656.2949
G3 X109.1223 Y154.4351 I-36.5612 J-77.7475
G1 Y585.046
G3 X179.8703 Y618.9024 I2.3762 J85.8821
G2 X228.2013 Y617.7883 I-152.4641 J-7663.5331
G1 Y344.5371
G1 Y148.0385
G2 X170.9217 Y146.7502 I-245.8172 J9655.0065
G1 F800.0 X170.9713 Y144.2106
G2 F1000.0 X149.0672 Y143.8078 I-188.5872 J9658.8344
G3 X106.5823 Y151.7335 I-36.01 J-75.1976
G1 Y587.6982
G3 X178.6182 Y621.4677 I4.9162 J83.2299
G2 X230.7413 Y620.2623 I-151.212 J-7666.0984
G1 Y344.5371
G1 Y145.5627
G2 X170.9713 Y144.2106 I-248.3572 J9657.4823
G1 F800.0 X171.0209 Y141.6711
G2 F1000.0 X148.5063 Y141.2578 I-188.6368 J9661.3739
G3 X104.0423 Y148.941 I-35.4491 J-72.6475
G1 Y590.4378
G3 X177.3405 Y624.0332 I7.4562 J80.4904
G2 X233.2813 Y622.7354 I-149.9343 J-7668.664
G1 Y344.5371
G1 Y143.0875
G2 X171.0209 Y141.6711 I-250.8972 J9659.9575
G1 F800.0 X171.0705 Y139.1316
G2 F1000.0 X147.9352 Y138.7076 I-188.6864 J9663.9134
G3 X101.5023 Y146.0479 I-34.8779 J-70.0973
G1 Y593.2739
G3 X176.0356 Y626.5991 I9.9962 J77.6543
G2 X235.8213 Y625.2077 I-148.6294 J-7671.2299
G1 Y344.5371
G1 Y140.6129
G2 X171.0705 Y139.1316 I-253.4372 J9662.4321
G1 F800.0 X171.1201 Y136.5921
G2 F1000.0 X147.3533 Y136.1573 I-188.736 J9666.4529
G3 X98.9623 Y143.0425 I-34.2961 J-67.547
G1 Y596.2176
G3 X174.702 Y629.1653 I12.5362 J74.7105
G2 X238.3613 Y627.6792 I-147.2958 J-7673.796
G1 Y344.5371
G1 Y138.139
G2 X171.1201 Y136.5921 I-255.9772 J9664.906
G1 F800.0 X171.1697 Y134.0526
G2 F1000.0 X146.7601 Y133.6068 I-188.7856 J9668.9924
G3 X96.4223 Y139.9104 I-33.7029 J-64.9965
G1 Y599.2822
G3 X173.3377 Y631.7318 I15.0762 J71.646
G2 X240.9013 Y630.1499 I-145.9315 J-7676.3626
G1 Y344.5371
G1 Y135.6657
G2 X171.1697 Y134.0526 I-258.5172 J9667.3794
G1 F800.0 X171.2192 Y131.5131
G2 F1000.0 X146.155 Y131.0562 I-188.8352 J9671.5319
G3 X93.8823 Y136.6344 I-33.0978 J-62.4459
G1 Y602.4838
G3 X171.9405 Y634.2987 I17.6162 J68.4443
G2 X243.4413 Y632.6199 I-144.5343 J-7678.9295
G1 Y344.5371
G1 Y133.193
G2 X171.2192 Y131.5131 I-261.0572 J9669.852
G1 F800.0 X171.2688 Y128.9736
G2 F1000.0 X145.5373 Y128.5054 I-188.8847 J9674.0715
G3 X91.3423 Y133.1923 I-32.48 J-59.8951
G1 Y605.8428
G3 X170.5082 Y636.866 I20.1562 J65.0854
G2 X244.3234 Y635.136 I-143.102 J-7681.4967
G3 X245.9813 Y633.9837 I39.7107 J55.3664
G1 Y344.5371
G1 Y130.721
G2 X171.2688 Y128.9736 I-263.5972 J9672.3241
G1 F800.0 X171.3184 Y126.434
G2 F1000.0 X144.9062 Y125.9544 I-188.9343 J9676.611
G3 X88.8023 Y129.5562 I-31.8489 J-57.3441
G1 Y609.3848
G3 X169.038 Y639.4337 I22.6962 J61.5434
G2 X245.1803 Y637.6528 I-141.6319 J-7684.0644
G3 X248.5213 Y635.3522 I38.8538 J52.8496
G1 Y344.5371
G1 Y128.2496
G2 X171.3184 Y126.434 I-266.1372 J9674.7955
G1 F800.0 X171.368 Y123.8945
G2 F1000.0 X144.2608 Y123.4032 I-188.9839 J9679.1505
G3 X86.2623 Y125.6888 I-31.2036 J-54.793
G1 Y612.2381
G1 X88.6668 Y612.1519
G3 X167.527 Y642.0018 I22.8317 J58.7762
G2 X246.0541 Y640.169 I-140.1208 J-7686.6325
G3 X251.0613 Y636.7555 I37.98 J50.3334
G1 Y344.5371
G1 Y125.7788
G2 X171.368 Y123.8945 I-268.6772 J9677.2662
G1 F800.0 X171.4176 Y121.355
G2 F1000.0 X143.6004 Y120.8519 I-189.0335 J9681.69
G3 X86.6717 Y123.07 I-30.5431 J-52.2416
G1 X83.7223 Y122.9643
G1 Y614.8708
G1 X89.1911 Y614.6748
G3 X165.9717 Y644.5704 I22.3074 J56.2534
G2 X246.9461 Y642.6846 I-138.5655 J-7689.2011
G3 X253.6013 Y638.1965 I37.088 J47.8178
G1 Y344.5371
G1 Y123.3086
G2 X171.4176 Y121.355 I-271.2172 J9679.7364
G1 F800.0 X171.4672 Y118.8155
G2 F1000.0 X143.204 Y118.3049 I-189.0831 J9684.2295
G1 X142.917 Y118.3043
G3 X87.3035 Y120.5511 I-29.8597 J-49.694
G1 X81.1823 Y120.3316
G1 Y617.5035
G1 X89.7249 Y617.1973
G3 X164.3682 Y647.1395 I21.7736 J53.7309
G2 X247.8574 Y645.1995 I-136.962 J-7691.7703
G3 X256.1413 Y639.6783 I36.1767 J45.3029
G1 Y344.5371
G1 Y120.839
G1 X254.0221 Y120.7794
G1 X254.021
G2 X171.4672 Y118.8155 I-271.6369 J9682.2656
G1 F800.0 X171.5167 Y116.276
G2 F1000.0 X143.2278 Y115.765 I-189.1327 J9686.769
G1 X142.2065 Y115.7628
G3 X87.9479 Y118.0325 I-29.1493 J-47.1525
G1 X78.6423 Y117.6989
G1 Y620.1362
G1 X90.2688 Y619.7194
G3 X162.7117 Y649.7092 I21.2297 J51.2088
G2 X248.7896 Y647.7138 I-135.3055 J-7694.34
G3 X258.6813 Y641.2046 I35.2445 J42.7886
G1 Y344.5371
G1 Y118.3698
G1 X254.0933 Y118.2404
G1 X254.0922
G2 X171.5167 Y116.276 I-271.7082 J9684.8046
G1 F800.0 X171.5663 Y113.7365
G2 F1000.0 X143.2516 Y113.225 I-189.1822 J9689.3086
G1 X141.4781 Y113.2212
G3 X88.6058 Y115.5145 I-28.4209 J-44.6109
G1 X76.1023 Y115.0662
G1 Y622.7689
G1 X90.8235 Y622.2411
G3 X160.9971 Y652.2796 I20.6749 J48.687
G2 X249.7442 Y650.2273 I-133.5909 J-7696.9103
G3 X261.2213 Y642.7797 I34.2899 J40.2751
G1 Y344.5371
G1 Y116.0026
G2 X259.1753 Y115.8428 I-157.6229 J2005.0666
G1 X254.1645 Y115.7014
G1 X254.1635
G2 X171.5663 Y113.7365 I-271.7794 J9687.3436
G1 F800.0 X171.6159 Y111.1969
G2 F1000.0 X143.2754 Y110.685 I-189.2318 J9691.8481
G1 X140.7303 Y110.6796
G3 X89.2781 Y112.997 I-27.6731 J-42.0693
G1 X73.5623 Y112.4335
G1 Y625.4016
G1 X91.39 Y624.7625
G3 X159.2179 Y654.8506 I20.1085 J46.1657
G2 X250.723 Y652.7401 I-131.8117 J-7699.4814
G3 X263.7613 Y644.4086 I33.3111 J37.7623
G1 Y344.5371
G1 Y113.9203
G3 X262.3809 Y113.5461 I12.4819 J-48.7835
G2 X259.3096 Y113.3056 I-158.7824 J2007.5231
G1 X254.2357 Y113.1624
G1 X254.2347
G2 X171.6159 Y111.1969 I-271.8506 J9689.8826
G1 F800.0 X171.6655 Y108.6574
G2 F1000.0 X143.2992 Y108.1451 I-189.2814 J9694.3876
G1 X139.9615 Y108.1379
G3 X89.9661 Y110.48 I-26.9042 J-39.5277
G1 X71.0223 Y109.8009
G1 Y628.0343
G1 X91.969 Y627.2833
G3 X157.3665 Y657.4225 I19.5295 J43.6448
G2 X251.7281 Y655.2519 I-129.9603 J-7702.0532
G3 X266.3013 Y646.0972 I32.306 J35.2505
G1 Y344.5371
G1 Y111.9068
G3 X262.8386 Y111.0344 I9.9419 J-46.77
G2 X259.4439 Y110.7684 I-159.2401 J2010.0348
G1 X254.3069 Y110.6234
G1 X254.3059
G2 X171.6655 Y108.6574 I-271.9219 J9692.4216
G1 F800.0 X171.7151 Y106.1179
G2 F1000.0 X143.323 Y105.6051 I-189.331 J9696.9271
G1 X139.1698 Y105.5962
G3 X90.6711 Y107.9636 I-26.1125 J-36.986
G1 X68.4823 Y107.1682
G1 Y630.6669
G1 X92.5616 Y629.8037
G3 X155.4336 Y659.9952 I18.9369 J41.1245
G2 X252.762 Y657.7628 I-128.0274 J-7704.6259
G3 X268.8413 Y647.8526 I31.2721 J32.7396
G1 Y344.5371
G1 Y109.8026
G3 X263.3034 Y108.5233 I7.4019 J-44.6658
G2 X259.5782 Y108.2311 I-159.7049 J2012.5459
G1 X254.3781 Y108.0844
G1 X254.3772
G2 X171.7151 Y106.1179 I-271.9931 J9694.9606
G1 F800.0 X171.7647 Y103.5784
G2 F1000.0 X143.3468 Y103.0652 I-189.3806 J9699.4666
G1 X138.353 Y103.0545
G3 X91.3947 Y105.4479 I-25.2958 J-34.4442
G1 X65.9423 Y104.5355
G1 Y633.2996
G1 X93.1691 Y632.3236
G3 X153.408 Y662.5689 I18.3294 J38.6046
G2 X253.8274 Y660.2727 I-126.0018 J-7707.1997
G3 X271.3813 Y649.6835 I30.2067 J30.2297
G1 Y344.5371
G1 Y107.5943
G3 X263.776 Y106.0128 I4.8619 J-42.4575
G2 X259.7124 Y105.6939 I-160.1775 J2015.0564
G1 X254.4492 Y105.5454
G1 X254.4484
G2 X171.7647 Y103.5784 I-272.0643 J9697.4996
G1 F800.0 X171.8142 Y101.0389
G2 F1000.0 X143.3706 Y100.5252 I-189.4302 J9702.0061
G1 X137.5087 Y100.5127
G3 X92.1386 Y102.933 I-24.4515 J-31.9024
G1 X63.4023 Y101.9028
G1 Y635.9323
G1 X93.7929 Y634.8428
G3 X151.2751 Y665.1438 I17.7056 J36.0853
G2 X254.9277 Y662.7814 I-123.8689 J-7709.7746
G3 X273.9213 Y651.6004 I29.1064 J27.721
G1 Y344.5371
G1 Y105.2647
G3 X264.2571 Y103.5031 I2.3219 J-40.1279
G2 X259.8466 Y103.1567 I-160.6586 J2017.5661
G1 X254.5204 Y103.0064
G1 X254.5196
G2 X171.8142 Y101.0389 I-272.1356 J9700.0386
G1 F800.0 X171.8638 Y98.4994
G2 F1000.0 X143.3944 Y97.9853 I-189.4797 J9704.5457
G1 X136.6339 Y97.9708
G3 X92.905 Y100.4188 I-23.5767 J-29.3605
G1 X60.8623 Y99.2701
G1 Y638.565
G1 X94.4346 Y637.3615
G3 X149.0171 Y667.7265 I17.0639 J33.5667
G2 X150.4456 Y667.6979 I-11.2449 J-599.2257
G3 X150.6402 Y667.6943 I0.7962 J37.6466
G2 X256.0668 Y665.2888 I-123.234 J-7712.3251
G3 X276.4613 Y653.6168 I27.9673 J25.2136
G1 Y344.5371
G1 Y102.7912
G3 X264.7474 Y100.9941 I-0.2181 J-37.6544
G2 X259.9808 Y100.6195 I-161.149 J2020.0751
G1 X254.5916 Y100.4674
G1 X254.5909
G2 X171.8638 Y98.4994 I-272.2068 J9702.5776
G1 F800.0 X171.9134 Y95.9598
G2 F1000.0 X143.4182 Y95.4453 I-189.5293 J9707.0852
G1 X135.725 Y95.4288
G3 X93.6962 Y97.9056 I-22.6678 J-26.8186
G1 X58.3223 Y96.6374
G1 Y641.1977
G1 X95.0962 Y639.8794
G3 X146.608 Y670.3071 I16.4023 J31.0488
